;FLAVOR:Marlin
;TIME:13912
;Filament used: 10.2584m
;Layer height: 0.2
;MINX:49.7
;MINY:5.873
;MINZ:0.2
;MAXX:185.188
;MAXY:229.127
;MAXZ:3
;Generated with Cura_SteamEngine 4.6.1
M140 S65
M105
M190 S65
M104 S205
M105
M109 S205
M82 ;absolute extrusion mode
; Ender 3 Custom Start G-code
G92 E0 ; Reset Extruder
G28 ; Home all axes
G1 Z2.0 F3000 ; Move Z Axis up little to prevent scratching of Heat Bed
G1 X0.1 Y20 Z0.3 F5000.0 ; Move to start position
G1 X0.1 Y200.0 Z0.3 F1500.0 E15 ; Draw the first line
G1 X0.4 Y200.0 Z0.3 F5000.0 ; Move to side a little
G1 X0.4 Y20 Z0.3 F1500.0 E30 ; Draw the second line
G92 E0 ; Reset Extruder
G1 Z2.0 F3000 ; Move Z Axis up little to prevent scratching of Heat Bed
G1 X5 Y20 Z0.3 F5000.0 ; Move over to prevent blob squish
G92 E0
G92 E0
G1 F2700 E-5
;LAYER_COUNT:17
;LAYER:0
M107
G0 F6000 X49.859 Y12.112 Z0.2
;TYPE:SKIRT
G1 F2700 E0
G1 F1200 X50.057 Y11.347 E0.02628
G1 X50.331 Y10.607 E0.05253
G1 X50.679 Y9.898 E0.0788
G1 X51.097 Y9.227 E0.10509
G1 X51.58 Y8.603 E0.13134
G1 X52.123 Y8.03 E0.15759
G1 X52.722 Y7.515 E0.18387
G1 X53.37 Y7.064 E0.21012
G1 X54.061 Y6.68 E0.23642
G1 X54.786 Y6.368 E0.26267
G1 X55.539 Y6.131 E0.28893
G1 X56.313 Y5.972 E0.31521
G1 X57.098 Y5.891 E0.34145
G1 X57.499 Y5.881 E0.3548
G1 X65.891 Y5.88 E0.63391
G1 X113.291 Y5.88 E2.21045
G1 X117.432 Y5.873 E2.34818
G1 X118.221 Y5.912 E2.37445
G1 X119.001 Y6.03 E2.40069
G1 X119.766 Y6.226 E2.42695
G1 X120.507 Y6.499 E2.45322
G1 X121.217 Y6.846 E2.4795
G1 X121.888 Y7.262 E2.50576
G1 X122.513 Y7.744 E2.53201
G1 X123.087 Y8.287 E2.55829
G1 X123.603 Y8.885 E2.58456
G1 X124.2 Y9.773 E2.62015
G1 X147.388 Y49.939 E4.16272
G1 X174.842 Y97.502 E5.98929
G1 X181.829 Y109.604 E6.45407
G1 X184.138 Y113.59 E6.60728
G1 X184.499 Y114.293 E6.63357
G1 X184.787 Y115.028 E6.65982
G1 X184.999 Y115.789 E6.6861
G1 X185.133 Y116.567 E6.71236
G1 X185.188 Y117.355 E6.73863
G1 X185.162 Y118.144 E6.76489
G1 X185.057 Y118.927 E6.79116
G1 X184.874 Y119.695 E6.81742
G1 X184.614 Y120.44 E6.84366
G1 X184.144 Y121.4 E6.87922
G1 X160.955 Y161.566 E8.4218
G1 X133.489 Y209.123 E10.2484
G1 X126.496 Y221.235 E10.71357
G1 X124.206 Y225.216 E10.86632
G1 X123.778 Y225.88 E10.89259
G1 X123.285 Y226.497 E10.91886
G1 X122.733 Y227.061 E10.94511
G1 X122.126 Y227.566 E10.97137
G1 X121.471 Y228.008 E10.99765
G1 X120.775 Y228.381 E11.02392
G1 X120.045 Y228.681 E11.05017
G1 X119.288 Y228.906 E11.07643
G1 X118.512 Y229.054 E11.10271
G1 X117.444 Y229.127 E11.13831
G1 X61.695 Y229.12 E12.99253
G1 X57.499 Y229.12 E13.13209
G1 X56.71 Y229.08 E13.15837
G1 X55.93 Y228.96 E13.18462
G1 X55.165 Y228.762 E13.2109
G1 X54.425 Y228.488 E13.23714
G1 X53.716 Y228.141 E13.2634
G1 X53.045 Y227.723 E13.28969
G1 X52.421 Y227.24 E13.31594
G1 X51.848 Y226.696 E13.34222
G1 X51.334 Y226.097 E13.36847
G1 X50.882 Y225.449 E13.39475
G1 X50.499 Y224.759 E13.42099
G1 X50.187 Y224.033 E13.44728
G1 X49.95 Y223.28 E13.47353
G1 X49.791 Y222.506 E13.49981
G1 X49.71 Y221.721 E13.52606
G1 X49.7 Y221.32 E13.5394
G1 X49.7 Y179.87 E14.91804
G1 X49.74 Y179.081 E14.94431
G1 X49.859 Y178.301 E14.97055
G1 X50.057 Y177.536 E14.99684
G1 X50.331 Y176.796 E15.02308
G1 X50.679 Y176.087 E15.04935
G1 X51.097 Y175.416 E15.07564
G1 X51.58 Y174.792 E15.10189
G1 X52.123 Y174.219 E15.12815
G1 X52.722 Y173.704 E15.15442
G1 X53.37 Y173.253 E15.18068
G1 X54.061 Y172.869 E15.20697
G1 X54.786 Y172.557 E15.23322
G1 X55.539 Y172.32 E15.25948
G1 X56.313 Y172.161 E15.28576
G1 X57.098 Y172.08 E15.31201
G1 X57.5 Y172.07 E15.32538
G1 X90.482 Y172.07 E16.42237
G1 X90.482 Y67.286 E19.9075
G1 X57.5 Y67.286 E21.00448
G1 X56.711 Y67.246 E21.03076
G1 X55.931 Y67.127 E21.057
G1 X55.166 Y66.929 E21.08329
G1 X54.426 Y66.655 E21.10953
G1 X53.717 Y66.307 E21.1358
G1 X53.046 Y65.889 E21.16209
G1 X52.422 Y65.406 E21.18834
G1 X51.849 Y64.863 E21.2146
G1 X51.334 Y64.264 E21.24087
G1 X50.883 Y63.616 E21.26713
G1 X50.499 Y62.925 E21.29342
G1 X50.187 Y62.2 E21.31967
G1 X49.95 Y61.447 E21.34593
G1 X49.791 Y60.673 E21.37221
G1 X49.71 Y59.888 E21.39846
G1 X49.7 Y59.486 E21.41183
G1 X49.7 Y13.681 E22.93531
G1 X49.74 Y12.892 E22.96159
G1 X49.859 Y12.112 E22.98783
G0 F6000 X50.259 Y12.153
G1 F1200 X50.457 Y11.41 E23.01341
G1 X50.731 Y10.691 E23.039
G1 X51.078 Y10.005 E23.06457
G1 X51.494 Y9.358 E23.09015
G1 X51.975 Y8.758 E23.11573
G1 X52.516 Y8.211 E23.14132
G1 X53.111 Y7.723 E23.16691
G1 X53.753 Y7.3 E23.19248
G1 X54.436 Y6.945 E23.21808
G1 X55.151 Y6.664 E23.24364
G1 X55.893 Y6.458 E23.26925
G1 X56.651 Y6.33 E23.29482
G1 X57.499 Y6.281 E23.32307
G1 X65.891 Y6.28 E23.60219
G1 X113.291 Y6.28 E25.17872
G1 X117.432 Y6.273 E25.31645
G1 X118.201 Y6.312 E25.34206
G1 X118.961 Y6.43 E25.36764
G1 X119.704 Y6.626 E25.3932
G1 X120.424 Y6.899 E25.41881
G1 X121.111 Y7.245 E25.44439
G1 X121.758 Y7.66 E25.46996
G1 X122.359 Y8.14 E25.49554
G1 X122.907 Y8.68 E25.52113
G1 X123.395 Y9.274 E25.5467
G1 X123.854 Y9.973 E25.57451
G1 X147.042 Y50.139 E27.11707
G1 X174.496 Y97.702 E28.94365
G1 X181.489 Y109.814 E29.40882
G1 X183.792 Y113.791 E29.56167
G1 X184.143 Y114.475 E29.58724
G1 X184.42 Y115.193 E29.61284
G1 X184.622 Y115.935 E29.63841
G1 X184.745 Y116.694 E29.66399
G1 X184.789 Y117.462 E29.68957
G1 X184.753 Y118.231 E29.71518
G1 X184.637 Y118.991 E29.74075
G1 X184.443 Y119.735 E29.76632
G1 X184.173 Y120.455 E29.7919
G1 X183.798 Y121.2 E29.81964
G1 X160.609 Y161.366 E31.36222
G1 X133.143 Y208.923 E33.18882
G1 X126.15 Y221.035 E33.65399
G1 X123.859 Y225.017 E33.80679
G1 X123.442 Y225.663 E33.83236
G1 X122.959 Y226.262 E33.85795
G1 X122.417 Y226.808 E33.88354
G1 X121.822 Y227.294 E33.90909
G1 X121.179 Y227.716 E33.93467
G1 X120.495 Y228.069 E33.96027
G1 X119.779 Y228.349 E33.98584
G1 X119.037 Y228.554 E34.01145
G1 X118.279 Y228.68 E34.03701
G1 X117.444 Y228.727 E34.06482
G1 X61.695 Y228.72 E35.91904
G1 X57.499 Y228.72 E36.0586
G1 X56.731 Y228.68 E36.08418
G1 X55.971 Y228.56 E36.10977
G1 X55.228 Y228.363 E36.13534
G1 X54.509 Y228.089 E36.16093
G1 X53.823 Y227.742 E36.1865
G1 X53.176 Y227.325 E36.2121
G1 X52.576 Y226.844 E36.23768
G1 X52.029 Y226.303 E36.26326
G1 X51.542 Y225.708 E36.28884
G1 X51.118 Y225.066 E36.31443
G1 X50.764 Y224.383 E36.34001
G1 X50.482 Y223.668 E36.36558
G1 X50.276 Y222.927 E36.39116
G1 X50.149 Y222.168 E36.41675
G1 X50.1 Y221.32 E36.445
G1 X50.1 Y179.87 E37.82364
G1 X50.14 Y179.102 E37.84922
G1 X50.259 Y178.342 E37.8748
G1 X50.457 Y177.599 E37.90038
G1 X50.731 Y176.88 E37.92597
G1 X51.078 Y176.194 E37.95154
G1 X51.494 Y175.547 E37.97712
G1 X51.975 Y174.947 E38.0027
G1 X52.516 Y174.4 E38.02829
G1 X53.111 Y173.912 E38.05388
G1 X53.753 Y173.489 E38.07945
G1 X54.436 Y173.134 E38.10505
G1 X55.151 Y172.853 E38.13061
G1 X55.893 Y172.647 E38.15622
G1 X56.651 Y172.519 E38.18179
G1 X57.5 Y172.47 E38.21007
G1 X90.882 Y172.47 E39.32036
G1 X90.882 Y66.886 E42.8321
G1 X57.5 Y66.886 E43.94239
G1 X56.732 Y66.846 E43.96797
G1 X55.972 Y66.727 E43.99355
G1 X55.229 Y66.529 E44.01913
G1 X54.51 Y66.255 E44.04472
G1 X53.824 Y65.908 E44.07029
G1 X53.177 Y65.492 E44.09587
G1 X52.577 Y65.011 E44.12145
G1 X52.03 Y64.47 E44.14704
G1 X51.542 Y63.875 E44.17263
G1 X51.119 Y63.233 E44.1982
G1 X50.764 Y62.55 E44.22381
G1 X50.483 Y61.835 E44.24936
G1 X50.277 Y61.093 E44.27497
G1 X50.149 Y60.335 E44.30054
G1 X50.1 Y59.486 E44.32882
G1 X50.1 Y13.681 E45.8523
G1 X50.14 Y12.913 E45.87788
G1 X50.259 Y12.153 E45.90347
G0 F6000 X50.659 Y12.196
G1 F1200 X50.857 Y11.474 E45.92837
G1 X51.13 Y10.778 E45.95323
G1 X51.477 Y10.115 E45.97812
G1 X51.892 Y9.492 E46.00302
G1 X52.371 Y8.918 E46.02789
G1 X52.908 Y8.397 E46.05277
G1 X53.498 Y7.938 E46.07763
G1 X54.134 Y7.543 E46.10253
G1 X54.808 Y7.219 E46.12741
G1 X55.513 Y6.969 E46.15229
G1 X56.241 Y6.795 E46.17718
G1 X56.983 Y6.7 E46.20206
G1 X57.499 Y6.681 E46.21924
G1 X65.891 Y6.68 E46.49836
G1 X113.292 Y6.68 E48.07492
G1 X117.433 Y6.673 E48.21265
G1 X118.18 Y6.712 E48.23753
G1 X118.919 Y6.83 E48.26242
G1 X119.641 Y7.026 E48.2873
G1 X120.337 Y7.299 E48.31217
G1 X121.001 Y7.644 E48.33706
G1 X121.624 Y8.058 E48.36194
G1 X122.2 Y8.536 E48.38683
G1 X122.721 Y9.072 E48.41169
G1 X123.182 Y9.662 E48.4366
G1 X123.507 Y10.173 E48.45674
G1 X146.695 Y50.339 E49.9993
G1 X174.149 Y97.902 E51.82587
G1 X181.137 Y110.005 E52.2907
G1 X183.446 Y113.991 E52.44391
G1 X183.786 Y114.658 E52.46881
G1 X184.053 Y115.357 E52.4937
G1 X184.243 Y116.08 E52.51857
G1 X184.356 Y116.819 E52.54343
G1 X184.389 Y117.567 E52.56833
G1 X184.342 Y118.313 E52.59319
G1 X184.215 Y119.051 E52.6181
G1 X184.011 Y119.77 E52.64296
G1 X183.731 Y120.464 E52.66785
G1 X183.451 Y121 E52.68796
G1 X160.262 Y161.166 E54.23054
G1 X132.797 Y208.723 E56.05713
G1 X125.804 Y220.835 E56.5223
G1 X123.513 Y224.817 E56.67509
G1 X123.106 Y225.445 E56.69998
G1 X122.634 Y226.026 E56.72488
G1 X122.103 Y226.552 E56.74974
G1 X121.519 Y227.02 E56.77463
G1 X120.888 Y227.422 E56.79952
G1 X120.218 Y227.754 E56.82439
G1 X119.516 Y228.014 E56.84928
G1 X118.791 Y228.196 E56.87415
G1 X118.05 Y228.301 E56.89904
G1 X117.444 Y228.327 E56.91921
G1 X61.695 Y228.32 E58.77343
G1 X57.499 Y228.32 E58.91299
G1 X56.752 Y228.28 E58.93787
G1 X56.014 Y228.16 E58.96274
G1 X55.292 Y227.963 E58.98763
G1 X54.596 Y227.689 E59.01251
G1 X53.933 Y227.343 E59.03738
G1 X53.31 Y226.928 E59.06228
G1 X52.736 Y226.449 E59.08715
G1 X52.216 Y225.911 E59.11203
G1 X51.756 Y225.321 E59.13692
G1 X51.362 Y224.685 E59.1618
G1 X51.038 Y224.011 E59.18667
G1 X50.788 Y223.306 E59.21155
G1 X50.614 Y222.578 E59.23645
G1 X50.519 Y221.836 E59.26133
G1 X50.5 Y221.32 E59.2785
G1 X50.5 Y179.87 E60.65713
G1 X50.54 Y179.123 E60.68202
G1 X50.659 Y178.385 E60.70688
G1 X50.857 Y177.663 E60.73178
G1 X51.13 Y176.967 E60.75665
G1 X51.477 Y176.304 E60.78153
G1 X51.892 Y175.681 E60.80643
G1 X52.371 Y175.107 E60.8313
G1 X52.908 Y174.586 E60.85618
G1 X53.498 Y174.127 E60.88105
G1 X54.134 Y173.732 E60.90595
G1 X54.808 Y173.408 E60.93082
G1 X55.513 Y173.158 E60.9557
G1 X56.241 Y172.984 E60.98059
G1 X56.983 Y172.889 E61.00547
G1 X57.5 Y172.87 E61.02268
G1 X91.282 Y172.87 E62.14628
G1 X91.282 Y66.486 E65.68462
G1 X57.5 Y66.486 E66.80822
G1 X56.753 Y66.446 E66.8331
G1 X56.015 Y66.327 E66.85796
G1 X55.293 Y66.129 E66.88286
G1 X54.597 Y65.856 E66.90773
G1 X53.934 Y65.509 E66.93262
G1 X53.311 Y65.094 E66.95751
G1 X52.737 Y64.615 E66.98238
G1 X52.216 Y64.078 E67.00726
G1 X51.757 Y63.488 E67.03213
G1 X51.362 Y62.852 E67.05703
G1 X51.038 Y62.178 E67.0819
G1 X50.788 Y61.473 E67.10678
G1 X50.614 Y60.745 E67.13167
G1 X50.519 Y60.003 E67.15655
G1 X50.5 Y59.486 E67.17376
G1 X50.5 Y13.681 E68.69724
G1 X50.54 Y12.934 E68.72212
G1 X50.659 Y12.196 E68.74699
G0 F6000 X51.059 Y12.239
G1 F1200 X51.257 Y11.54 E68.77115
G1 X51.53 Y10.867 E68.79531
G1 X51.875 Y10.228 E68.81946
G1 X52.289 Y9.631 E68.84362
G1 X52.765 Y9.083 E68.86776
G1 X53.299 Y8.59 E68.89194
G1 X53.884 Y8.16 E68.91609
G1 X54.513 Y7.796 E68.94026
G1 X55.178 Y7.503 E68.96443
G1 X55.871 Y7.285 E68.98859
G1 X56.583 Y7.145 E69.01272
G1 X57.499 Y7.081 E69.04326
G1 X65.891 Y7.08 E69.32238
G1 X113.293 Y7.08 E70.89898
G1 X117.434 Y7.073 E71.03671
G1 X118.159 Y7.112 E71.06086
G1 X118.876 Y7.23 E71.08503
G1 X119.575 Y7.426 E71.10917
G1 X120.249 Y7.698 E71.13335
G1 X120.888 Y8.042 E71.15748
G1 X121.486 Y8.455 E71.18166
G1 X122.035 Y8.931 E71.20582
G1 X122.528 Y9.464 E71.22997
G1 X122.96 Y10.048 E71.25413
G1 X123.161 Y10.373 E71.26684
G1 X146.349 Y50.539 E72.80941
G1 X173.803 Y98.102 E74.63598
G1 X180.791 Y110.206 E75.10084
G1 X183.1 Y114.192 E75.25405
G1 X183.429 Y114.839 E75.27819
G1 X183.685 Y115.519 E75.30236
G1 X183.864 Y116.223 E75.32652
G1 X183.965 Y116.942 E75.35066
G1 X183.987 Y117.668 E75.37482
G1 X183.928 Y118.392 E75.39898
G1 X183.791 Y119.106 E75.42316
G1 X183.576 Y119.799 E75.4473
G1 X183.285 Y120.465 E75.47147
G1 X183.105 Y120.8 E75.48412
G1 X159.916 Y160.966 E77.0267
G1 X132.451 Y208.522 E78.85325
G1 X125.458 Y220.634 E79.31842
G1 X123.166 Y224.618 E79.47129
G1 X122.77 Y225.227 E79.49546
G1 X122.309 Y225.788 E79.51961
G1 X121.789 Y226.296 E79.54379
G1 X121.217 Y226.743 E79.56793
G1 X120.599 Y227.125 E79.59209
G1 X119.943 Y227.436 E79.61624
G1 X119.256 Y227.674 E79.64042
G1 X118.548 Y227.834 E79.66457
G1 X117.826 Y227.916 E79.68873
G1 X117.444 Y227.927 E79.70144
G1 X61.695 Y227.92 E81.55566
G1 X57.499 Y227.92 E81.69522
G1 X56.774 Y227.88 E81.71937
G1 X56.057 Y227.76 E81.74355
G1 X55.358 Y227.563 E81.76771
G1 X54.685 Y227.29 E81.79186
G1 X54.046 Y226.944 E81.81603
G1 X53.449 Y226.531 E81.84018
G1 X52.901 Y226.054 E81.86434
G1 X52.409 Y225.52 E81.88849
G1 X51.978 Y224.935 E81.91266
G1 X51.614 Y224.307 E81.9368
G1 X51.322 Y223.642 E81.96096
G1 X51.104 Y222.949 E81.98512
G1 X50.964 Y222.236 E82.00929
G1 X50.9 Y221.32 E82.03983
G1 X50.9 Y179.87 E83.41846
G1 X50.94 Y179.145 E83.44261
G1 X51.059 Y178.428 E83.46678
G1 X51.257 Y177.729 E83.49095
G1 X51.53 Y177.056 E83.5151
G1 X51.875 Y176.417 E83.53926
G1 X52.289 Y175.82 E83.56342
G1 X52.765 Y175.272 E83.58756
G1 X53.299 Y174.779 E83.61173
G1 X53.884 Y174.349 E83.63588
G1 X54.513 Y173.985 E83.66005
G1 X55.178 Y173.692 E83.68422
G1 X55.871 Y173.474 E83.70839
G1 X56.583 Y173.334 E83.73252
G1 X57.5 Y173.27 E83.76309
G1 X91.682 Y173.27 E84.89999
G1 X91.682 Y66.086 E88.46495
G1 X57.5 Y66.086 E89.60184
G1 X56.775 Y66.046 E89.626
G1 X56.058 Y65.927 E89.65017
G1 X55.359 Y65.729 E89.67433
G1 X54.686 Y65.456 E89.69849
G1 X54.047 Y65.111 E89.72264
G1 X53.45 Y64.697 E89.7468
G1 X52.902 Y64.221 E89.77095
G1 X52.409 Y63.687 E89.79512
G1 X51.979 Y63.102 E89.81927
G1 X51.615 Y62.473 E89.84344
G1 X51.322 Y61.808 E89.86761
G1 X51.104 Y61.115 E89.89177
G1 X50.964 Y60.403 E89.91591
G1 X50.9 Y59.486 E89.94648
G1 X50.9 Y13.681 E91.46996
G1 X50.94 Y12.956 E91.49411
G1 X51.059 Y12.239 E91.51828
G0 F6000 X51.459 Y12.284
G1 F1200 X51.657 Y11.609 E91.54168
G1 X51.929 Y10.96 E91.56509
G1 X52.274 Y10.346 E91.58851
G1 X52.685 Y9.775 E91.61191
G1 X53.159 Y9.254 E91.63534
G1 X53.689 Y8.79 E91.65877
G1 X54.268 Y8.39 E91.68217
G1 X54.889 Y8.058 E91.70559
G1 X55.543 Y7.798 E91.729
G1 X56.223 Y7.614 E91.75243
G1 X56.919 Y7.508 E91.77585
G1 X57.499 Y7.481 E91.79516
G1 X65.891 Y7.48 E92.07428
G1 X113.294 Y7.48 E93.65091
G1 X117.435 Y7.473 E93.78864
G1 X118.137 Y7.512 E93.81202
G1 X118.831 Y7.63 E93.83544
G1 X119.508 Y7.826 E93.85888
G1 X120.157 Y8.098 E93.88228
G1 X120.772 Y8.441 E93.90571
G1 X121.343 Y8.852 E93.92911
G1 X121.865 Y9.325 E93.95253
G1 X122.329 Y9.854 E93.97594
G1 X122.814 Y10.573 E94.00478
G1 X146.002 Y50.739 E95.54735
G1 X173.456 Y98.302 E97.37392
G1 X180.445 Y110.406 E97.83879
G1 X182.754 Y114.392 E97.99201
G1 X183.072 Y115.02 E98.01542
G1 X183.316 Y115.681 E98.03885
G1 X183.484 Y116.364 E98.06225
G1 X183.574 Y117.063 E98.08569
G1 X183.583 Y117.766 E98.10907
G1 X183.513 Y118.467 E98.1325
G1 X183.364 Y119.155 E98.15592
G1 X183.138 Y119.822 E98.17934
G1 X182.758 Y120.6 E98.20814
G1 X159.569 Y160.766 E99.75072
G1 X132.104 Y208.322 E101.57727
G1 X125.111 Y220.434 E102.04244
G1 X122.819 Y224.419 E102.19534
G1 X122.434 Y225.008 E102.21875
G1 X121.985 Y225.55 E102.24216
G1 X121.477 Y226.037 E102.26556
G1 X120.917 Y226.464 E102.28898
G1 X120.312 Y226.824 E102.3124
G1 X119.67 Y227.114 E102.33583
G1 X119 Y227.329 E102.35923
G1 X118.31 Y227.466 E102.38263
G1 X117.444 Y227.527 E102.41151
G1 X61.695 Y227.52 E104.26573
G1 X57.499 Y227.52 E104.40528
G1 X56.796 Y227.48 E104.4287
G1 X56.103 Y227.36 E104.4521
G1 X55.427 Y227.163 E104.47552
G1 X54.778 Y226.89 E104.49893
G1 X54.164 Y226.546 E104.52234
G1 X53.593 Y226.134 E104.54576
G1 X53.072 Y225.66 E104.56919
G1 X52.609 Y225.13 E104.5926
G1 X52.209 Y224.551 E104.616
G1 X51.876 Y223.93 E104.63944
G1 X51.617 Y223.276 E104.66283
G1 X51.433 Y222.597 E104.68623
G1 X51.327 Y221.901 E104.70965
G1 X51.3 Y221.32 E104.72899
G1 X51.3 Y179.87 E106.10763
G1 X51.34 Y179.167 E106.13105
G1 X51.459 Y178.473 E106.15446
G1 X51.657 Y177.798 E106.17786
G1 X51.929 Y177.149 E106.20127
G1 X52.274 Y176.535 E106.22469
G1 X52.685 Y175.964 E106.24809
G1 X53.159 Y175.443 E106.27152
G1 X53.689 Y174.979 E106.29495
G1 X54.268 Y174.579 E106.31835
G1 X54.889 Y174.247 E106.34177
G1 X55.543 Y173.987 E106.36518
G1 X56.223 Y173.803 E106.38861
G1 X56.919 Y173.697 E106.41203
G1 X57.5 Y173.67 E106.43137
