;FLAVOR:Marlin
;TIME:2008
;Filament used: 1.5211m
;Layer height: 0.2
;MINX:89.7
;MINY:74.7
;MINZ:0.2
;MAXX:145.3
;MAXY:160.3
;MAXZ:1.88
;Generated with Cura_SteamEngine 4.6.1
M140 S65
M105
M190 S65
M104 S205
M105
M109 S205
M82 ;absolute extrusion mode
; Ender 3 Custom Start G-code
G92 E0 ; Reset Extruder
G28 ; Home all axes
G1 Z2.0 F3000 ; Move Z Axis up little to prevent scratching of Heat Bed
G1 X0.1 Y20 Z0.3 F5000.0 ; Move to start position
G1 X0.1 Y200.0 Z0.3 F1500.0 E15 ; Draw the first line
G1 X0.4 Y200.0 Z0.3 F5000.0 ; Move to side a little
G1 X0.4 Y20 Z0.3 F1500.0 E30 ; Draw the second line
G92 E0 ; Reset Extruder
G1 Z2.0 F3000 ; Move Z Axis up little to prevent scratching of Heat Bed
G1 X5 Y20 Z0.3 F5000.0 ; Move over to prevent blob squish
G92 E0
G92 E0
G1 F2700 E-5
;LAYER_COUNT:9
;LAYER:0
M107
G0 F6000 X91.58 Y77.422 Z0.2
;TYPE:SKIRT
G1 F2700 E0
G1 F1200 X92.123 Y76.849 E0.02626
G1 X92.722 Y76.334 E0.05253
G1 X93.37 Y75.883 E0.07879
G1 X94.061 Y75.499 E0.10508
G1 X94.786 Y75.187 E0.13133
G1 X95.539 Y74.95 E0.15759
G1 X96.313 Y74.791 E0.18387
G1 X97.098 Y74.71 E0.21012
G1 X97.5 Y74.7 E0.22349
G1 X137.5 Y74.7 E1.5539
G1 X138.289 Y74.74 E1.58017
G1 X139.069 Y74.859 E1.60642
G1 X139.834 Y75.057 E1.6327
G1 X140.574 Y75.331 E1.65895
G1 X141.283 Y75.679 E1.68521
G1 X141.954 Y76.097 E1.71151
G1 X142.578 Y76.58 E1.73775
G1 X143.151 Y77.123 E1.76401
G1 X143.666 Y77.722 E1.79028
G1 X144.117 Y78.37 E1.81654
G1 X144.501 Y79.061 E1.84284
G1 X144.813 Y79.786 E1.86909
G1 X145.05 Y80.539 E1.89534
G1 X145.209 Y81.313 E1.92162
G1 X145.29 Y82.098 E1.94787
G1 X145.3 Y82.5 E1.96125
G1 X145.3 Y92.5 E2.29385
G1 X145.26 Y93.289 E2.32012
G1 X145.141 Y94.069 E2.34637
G1 X144.943 Y94.834 E2.37265
G1 X144.669 Y95.574 E2.39889
G1 X144.321 Y96.283 E2.42516
G1 X143.903 Y96.954 E2.45146
G1 X143.478 Y97.503 E2.47455
G1 X143.666 Y97.722 E2.48415
G1 X144.117 Y98.37 E2.51041
G1 X144.501 Y99.061 E2.5367
G1 X144.813 Y99.786 E2.56295
G1 X145.05 Y100.539 E2.58921
G1 X145.209 Y101.313 E2.61549
G1 X145.29 Y102.098 E2.64174
G1 X145.3 Y102.5 E2.65511
G1 X145.3 Y112.5 E2.98771
G1 X145.26 Y113.289 E3.01399
G1 X145.141 Y114.069 E3.04023
G1 X144.943 Y114.834 E3.06652
G1 X144.669 Y115.574 E3.09276
G1 X144.321 Y116.283 E3.11903
G1 X143.903 Y116.954 E3.14532
G1 X143.478 Y117.503 E3.16842
G1 X143.666 Y117.722 E3.17801
G1 X144.117 Y118.37 E3.20427
G1 X144.501 Y119.061 E3.23057
G1 X144.813 Y119.786 E3.25682
G1 X145.05 Y120.539 E3.28307
G1 X145.209 Y121.313 E3.30936
G1 X145.29 Y122.098 E3.3356
G1 X145.3 Y122.5 E3.34898
G1 X145.3 Y132.5 E3.68158
G1 X145.26 Y133.289 E3.70786
G1 X145.141 Y134.069 E3.7341
G1 X144.943 Y134.834 E3.76038
G1 X144.669 Y135.574 E3.78663
G1 X144.321 Y136.283 E3.8129
G1 X143.903 Y136.954 E3.83919
G1 X143.478 Y137.503 E3.86228
G1 X143.666 Y137.722 E3.87188
G1 X144.117 Y138.37 E3.89814
G1 X144.501 Y139.061 E3.92443
G1 X144.813 Y139.786 E3.95068
G1 X145.05 Y140.539 E3.97694
G1 X145.209 Y141.313 E4.00322
G1 X145.29 Y142.098 E4.02947
G1 X145.3 Y142.5 E4.04284
G1 X145.3 Y152.5 E4.37544
G1 X145.26 Y153.289 E4.40172
G1 X145.141 Y154.069 E4.42796
G1 X144.943 Y154.834 E4.45425
G1 X144.669 Y155.574 E4.48049
G1 X144.321 Y156.283 E4.50676
G1 X143.903 Y156.954 E4.53305
G1 X143.42 Y157.578 E4.5593
G1 X142.877 Y158.151 E4.58556
G1 X142.278 Y158.666 E4.61183
G1 X141.63 Y159.117 E4.63809
G1 X140.939 Y159.501 E4.66438
G1 X140.214 Y159.813 E4.69063
G1 X139.461 Y160.05 E4.71689
G1 X138.687 Y160.209 E4.74317
G1 X137.902 Y160.29 E4.76942
G1 X137.5 Y160.3 E4.78279
G1 X97.5 Y160.3 E6.1132
G1 X96.711 Y160.26 E6.13947
G1 X95.931 Y160.141 E6.16572
G1 X95.166 Y159.943 E6.192
G1 X94.426 Y159.669 E6.21825
G1 X93.717 Y159.321 E6.24451
G1 X93.046 Y158.903 E6.27081
G1 X92.422 Y158.42 E6.29705
G1 X91.849 Y157.877 E6.32331
G1 X91.334 Y157.278 E6.34958
G1 X90.883 Y156.63 E6.37584
G1 X90.499 Y155.939 E6.40214
G1 X90.187 Y155.214 E6.42839
G1 X89.95 Y154.461 E6.45464
G1 X89.791 Y153.687 E6.48092
G1 X89.71 Y152.902 E6.50717
G1 X89.7 Y152.5 E6.52055
G1 X89.7 Y142.5 E6.85315
G1 X89.74 Y141.711 E6.87942
G1 X89.859 Y140.931 E6.90567
G1 X90.057 Y140.166 E6.93195
G1 X90.331 Y139.426 E6.95819
G1 X90.679 Y138.717 E6.98446
G1 X91.097 Y138.046 E7.01076
G1 X91.522 Y137.497 E7.03385
G1 X91.334 Y137.278 E7.04345
G1 X90.883 Y136.63 E7.06971
G1 X90.499 Y135.939 E7.096
G1 X90.187 Y135.214 E7.12225
G1 X89.95 Y134.461 E7.14851
G1 X89.791 Y133.687 E7.17479
G1 X89.71 Y132.902 E7.20104
G1 X89.7 Y132.5 E7.21441
G1 X89.7 Y122.5 E7.54701
G1 X89.74 Y121.711 E7.57329
G1 X89.859 Y120.931 E7.59953
G1 X90.057 Y120.166 E7.62581
G1 X90.331 Y119.426 E7.65206
G1 X90.679 Y118.717 E7.67833
G1 X91.097 Y118.046 E7.70462
G1 X91.522 Y117.497 E7.72771
G1 X91.334 Y117.278 E7.73731
G1 X90.883 Y116.63 E7.76357
G1 X90.499 Y115.939 E7.78987
G1 X90.187 Y115.214 E7.81612
G1 X89.95 Y114.461 E7.84237
G1 X89.791 Y113.687 E7.86866
G1 X89.71 Y112.902 E7.8949
G1 X89.7 Y112.5 E7.90828
G1 X89.7 Y102.5 E8.24088
G1 X89.74 Y101.711 E8.26715
G1 X89.859 Y100.931 E8.2934
G1 X90.057 Y100.166 E8.31968
G1 X90.331 Y99.426 E8.34593
G1 X90.679 Y98.717 E8.37219
G1 X91.097 Y98.046 E8.39849
G1 X91.522 Y97.497 E8.42158
G1 X91.334 Y97.278 E8.43118
G1 X90.883 Y96.63 E8.45744
G1 X90.499 Y95.939 E8.48373
G1 X90.187 Y95.214 E8.50998
G1 X89.95 Y94.461 E8.53624
G1 X89.791 Y93.687 E8.56252
G1 X89.71 Y92.902 E8.58877
G1 X89.7 Y92.5 E8.60214
G1 X89.7 Y82.5 E8.93474
G1 X89.74 Y81.711 E8.96102
G1 X89.859 Y80.931 E8.98726
G1 X90.057 Y80.166 E9.01355
G1 X90.331 Y79.426 E9.03979
G1 X90.679 Y78.717 E9.06606
G1 X91.097 Y78.046 E9.09235
G1 X91.58 Y77.422 E9.1186
G0 F6000 X91.975 Y77.577
G1 F1200 X92.516 Y77.03 E9.14419
G1 X93.111 Y76.542 E9.16978
G1 X93.753 Y76.119 E9.19535
G1 X94.436 Y75.764 E9.22096
G1 X95.151 Y75.483 E9.24651
G1 X95.893 Y75.277 E9.27212
G1 X96.651 Y75.149 E9.29769
G1 X97.5 Y75.1 E9.32597
G1 X137.5 Y75.1 E10.65638
G1 X138.268 Y75.14 E10.68196
G1 X139.028 Y75.259 E10.70754
G1 X139.771 Y75.457 E10.73312
G1 X140.49 Y75.731 E10.75871
G1 X141.176 Y76.078 E10.78428
G1 X141.823 Y76.494 E10.80986
G1 X142.423 Y76.975 E10.83544
G1 X142.97 Y77.516 E10.86103
G1 X143.458 Y78.111 E10.88662
G1 X143.881 Y78.753 E10.91219
G1 X144.236 Y79.436 E10.93779
G1 X144.517 Y80.151 E10.96335
G1 X144.723 Y80.893 E10.98896
G1 X144.851 Y81.651 E11.01453
G1 X144.9 Y82.5 E11.04281
G1 X144.9 Y92.5 E11.37541
G1 X144.86 Y93.268 E11.40099
G1 X144.741 Y94.028 E11.42658
G1 X144.543 Y94.771 E11.45215
G1 X144.269 Y95.49 E11.47774
G1 X143.922 Y96.176 E11.50331
G1 X143.506 Y96.823 E11.5289
G1 X143.025 Y97.423 E11.55447
G1 X142.951 Y97.498 E11.55798
G1 X143.458 Y98.111 E11.58444
G1 X143.881 Y98.753 E11.61001
G1 X144.236 Y99.436 E11.63561
G1 X144.517 Y100.151 E11.66116
G1 X144.723 Y100.893 E11.68677
G1 X144.851 Y101.651 E11.71234
G1 X144.9 Y102.5 E11.74063
G1 X144.9 Y112.5 E12.07323
G1 X144.86 Y113.268 E12.09881
G1 X144.741 Y114.028 E12.12439
G1 X144.543 Y114.771 E12.14997
G1 X144.269 Y115.49 E12.17556
G1 X143.922 Y116.176 E12.20113
G1 X143.506 Y116.823 E12.22671
G1 X143.025 Y117.423 E12.25229
G1 X142.951 Y117.498 E12.25579
G1 X143.458 Y118.111 E12.28225
G1 X143.881 Y118.753 E12.30782
G1 X144.236 Y119.436 E12.33342
G1 X144.517 Y120.151 E12.35898
G1 X144.723 Y120.893 E12.38459
G1 X144.851 Y121.651 E12.41016
G1 X144.9 Y122.5 E12.43844
G1 X144.9 Y132.5 E12.77104
G1 X144.86 Y133.268 E12.79662
G1 X144.741 Y134.028 E12.82221
G1 X144.543 Y134.771 E12.84778
G1 X144.269 Y135.49 E12.87337
G1 X143.922 Y136.176 E12.89894
G1 X143.506 Y136.823 E12.92453
G1 X143.025 Y137.423 E12.9501
G1 X142.951 Y137.498 E12.95361
G1 X143.458 Y138.111 E12.98007
G1 X143.881 Y138.753 E13.00564
G1 X144.236 Y139.436 E13.03124
G1 X144.517 Y140.151 E13.05679
G1 X144.723 Y140.893 E13.0824
G1 X144.851 Y141.651 E13.10797
G1 X144.9 Y142.5 E13.13626
G1 X144.9 Y152.5 E13.46886
G1 X144.86 Y153.268 E13.49444
G1 X144.741 Y154.028 E13.52002
G1 X144.543 Y154.771 E13.5456
G1 X144.269 Y155.49 E13.57119
G1 X143.922 Y156.176 E13.59676
G1 X143.506 Y156.823 E13.62234
G1 X143.025 Y157.423 E13.64792
G1 X142.484 Y157.97 E13.67351
G1 X141.889 Y158.458 E13.6991
G1 X141.247 Y158.881 E13.72467
G1 X140.564 Y159.236 E13.75027
G1 X139.849 Y159.517 E13.77583
G1 X139.107 Y159.723 E13.80144
G1 X138.349 Y159.851 E13.82701
G1 X137.5 Y159.9 E13.85529
G1 X97.5 Y159.9 E15.1857
G1 X96.732 Y159.86 E15.21128
G1 X95.972 Y159.741 E15.23686
G1 X95.229 Y159.543 E15.26244
G1 X94.51 Y159.269 E15.28803
G1 X93.824 Y158.922 E15.3136
G1 X93.177 Y158.506 E15.33918
G1 X92.577 Y158.025 E15.36476
G1 X92.03 Y157.484 E15.39035
G1 X91.542 Y156.889 E15.41594
G1 X91.119 Y156.247 E15.44151
G1 X90.764 Y155.564 E15.46711
G1 X90.483 Y154.849 E15.49267
G1 X90.277 Y154.107 E15.51828
G1 X90.149 Y153.349 E15.54385
G1 X90.1 Y152.5 E15.57213
G1 X90.1 Y142.5 E15.90473
G1 X90.14 Y141.732 E15.93031
G1 X90.259 Y140.972 E15.9559
G1 X90.457 Y140.229 E15.98147
G1 X90.731 Y139.51 E16.00706
G1 X91.078 Y138.824 E16.03263
G1 X91.494 Y138.177 E16.05822
G1 X91.975 Y137.577 E16.08379
G1 X92.049 Y137.502 E16.0873
G1 X91.542 Y136.889 E16.11375
G1 X91.119 Y136.247 E16.13933
G1 X90.764 Y135.564 E16.16493
G1 X90.483 Y134.849 E16.19048
G1 X90.277 Y134.107 E16.21609
G1 X90.149 Y133.349 E16.24166
G1 X90.1 Y132.5 E16.26995
G1 X90.1 Y122.5 E16.60255
G1 X90.14 Y121.732 E16.62813
G1 X90.259 Y120.972 E16.65371
G1 X90.457 Y120.229 E16.67929
G1 X90.731 Y119.51 E16.70488
G1 X91.078 Y118.824 E16.73045
G1 X91.494 Y118.177 E16.75603
G1 X91.975 Y117.577 E16.78161
G1 X92.049 Y117.502 E16.78511
G1 X91.542 Y116.889 E16.81157
G1 X91.119 Y116.247 E16.83714
G1 X90.764 Y115.564 E16.86274
G1 X90.483 Y114.849 E16.88829
G1 X90.277 Y114.107 E16.91391
G1 X90.149 Y113.349 E16.93948
G1 X90.1 Y112.5 E16.96776
G1 X90.1 Y102.5 E17.30036
G1 X90.14 Y101.732 E17.32594
G1 X90.259 Y100.972 E17.35153
G1 X90.457 Y100.229 E17.3771
G1 X90.731 Y99.51 E17.40269
G1 X91.078 Y98.824 E17.42826
G1 X91.494 Y98.177 E17.45384
G1 X91.975 Y97.577 E17.47942
G1 X92.049 Y97.502 E17.48293
G1 X91.542 Y96.889 E17.50938
G1 X91.119 Y96.247 E17.53496
G1 X90.764 Y95.564 E17.56056
G1 X90.483 Y94.849 E17.58611
G1 X90.277 Y94.107 E17.61172
G1 X90.149 Y93.349 E17.63729
G1 X90.1 Y92.5 E17.66557
G1 X90.1 Y82.5 E17.99818
G1 X90.14 Y81.732 E18.02375
G1 X90.259 Y80.972 E18.04934
G1 X90.457 Y80.229 E18.07492
G1 X90.731 Y79.51 E18.10051
G1 X91.078 Y78.824 E18.12608
G1 X91.494 Y78.177 E18.15166
G1 X91.975 Y77.577 E18.17724
G0 F6000 X92.371 Y77.737
G1 F1200 X92.908 Y77.216 E18.20212
G1 X93.498 Y76.757 E18.22698
G1 X94.134 Y76.362 E18.25189
G1 X94.808 Y76.038 E18.27676
G1 X95.513 Y75.788 E18.30164
G1 X96.241 Y75.614 E18.32653
G1 X96.983 Y75.519 E18.35141
G1 X97.5 Y75.5 E18.36862
G1 X137.5 Y75.5 E19.69903
G1 X138.247 Y75.54 E19.72391
G1 X138.985 Y75.659 E19.74877
G1 X139.707 Y75.857 E19.77367
G1 X140.403 Y76.13 E19.79854
G1 X141.066 Y76.477 E19.82343
G1 X141.689 Y76.892 E19.84832
G1 X142.263 Y77.371 E19.87319
G1 X142.784 Y77.908 E19.89807
G1 X143.243 Y78.498 E19.92294
G1 X143.638 Y79.134 E19.94784
G1 X143.962 Y79.808 E19.97271
G1 X144.212 Y80.513 E19.99759
G1 X144.386 Y81.241 E20.02249
G1 X144.481 Y81.983 E20.04737
G1 X144.5 Y82.5 E20.06457
G1 X144.5 Y92.5 E20.39717
G1 X144.46 Y93.247 E20.42206
G1 X144.341 Y93.985 E20.44692
G1 X144.143 Y94.707 E20.47182
G1 X143.87 Y95.403 E20.49668
G1 X143.523 Y96.066 E20.52157
G1 X143.108 Y96.689 E20.54647
G1 X142.629 Y97.263 E20.57134
G1 X142.386 Y97.498 E20.58258
G1 X142.784 Y97.908 E20.60159
G1 X143.243 Y98.498 E20.62645
G1 X143.638 Y99.134 E20.65135
G1 X143.962 Y99.808 E20.67622
G1 X144.212 Y100.513 E20.7011
G1 X144.386 Y101.241 E20.726
G1 X144.481 Y101.983 E20.75088
G1 X144.5 Y102.5 E20.76808
G1 X144.5 Y112.5 E21.10069
G1 X144.46 Y113.247 E21.12557
G1 X144.341 Y113.985 E21.15043
G1 X144.143 Y114.707 E21.17533
G1 X143.87 Y115.403 E21.2002
G1 X143.523 Y116.066 E21.22508
G1 X143.108 Y116.689 E21.24998
G1 X142.629 Y117.263 E21.27485
G1 X142.386 Y117.498 E21.28609
G1 X142.784 Y117.908 E21.3051
G1 X143.243 Y118.498 E21.32996
G1 X143.638 Y119.134 E21.35486
G1 X143.962 Y119.808 E21.37973
G1 X144.212 Y120.513 E21.40461
G1 X144.386 Y121.241 E21.42951
G1 X144.481 Y121.983 E21.45439
G1 X144.5 Y122.5 E21.4716
G1 X144.5 Y132.5 E21.8042
G1 X144.46 Y133.247 E21.82908
G1 X144.341 Y133.985 E21.85394
G1 X144.143 Y134.707 E21.87884
G1 X143.87 Y135.403 E21.90371
G1 X143.523 Y136.066 E21.9286
G1 X143.108 Y136.689 E21.95349
G1 X142.629 Y137.263 E21.97836
G1 X142.386 Y137.498 E21.9896
G1 X142.784 Y137.908 E22.00861
G1 X143.243 Y138.498 E22.03347
G1 X143.638 Y139.134 E22.05837
G1 X143.962 Y139.808 E22.08324
G1 X144.212 Y140.513 E22.10812
G1 X144.386 Y141.241 E22.13302
G1 X144.481 Y141.983 E22.1579
G1 X144.5 Y142.5 E22.17511
G1 X144.5 Y152.5 E22.50771
G1 X144.46 Y153.247 E22.53259
G1 X144.341 Y153.985 E22.55745
G1 X144.143 Y154.707 E22.58235
G1 X143.87 Y155.403 E22.60722
G1 X143.523 Y156.066 E22.63211
G1 X143.108 Y156.689 E22.657
G1 X142.629 Y157.263 E22.68187
G1 X142.092 Y157.784 E22.70676
G1 X141.502 Y158.243 E22.73162
G1 X140.866 Y158.638 E22.75652
G1 X140.192 Y158.962 E22.78139
G1 X139.487 Y159.212 E22.80627
G1 X138.759 Y159.386 E22.83117
G1 X138.017 Y159.481 E22.85605
G1 X137.5 Y159.5 E22.87325
G1 X97.5 Y159.5 E24.20366
G1 X96.753 Y159.46 E24.22854
G1 X96.015 Y159.341 E24.2534
G1 X95.293 Y159.143 E24.2783
G1 X94.597 Y158.87 E24.30317
G1 X93.934 Y158.523 E24.32806
G1 X93.311 Y158.108 E24.35296
G1 X92.737 Y157.629 E24.37782
G1 X92.216 Y157.092 E24.40271
G1 X91.757 Y156.502 E24.42757
G1 X91.362 Y155.866 E24.45247
G1 X91.038 Y155.192 E24.47734
G1 X90.788 Y154.487 E24.50222
G1 X90.614 Y153.759 E24.52712
G1 X90.519 Y153.017 E24.552
G1 X90.5 Y152.5 E24.56921
G1 X90.5 Y142.5 E24.90181
G1 X90.54 Y141.753 E24.92669
G1 X90.659 Y141.015 E24.95155
G1 X90.857 Y140.293 E24.97645
G1 X91.13 Y139.597 E25.00132
G1 X91.477 Y138.934 E25.02621
G1 X91.892 Y138.311 E25.0511
G1 X92.371 Y137.737 E25.07597
G1 X92.614 Y137.502 E25.08721
G1 X92.216 Y137.092 E25.10622
G1 X91.757 Y136.502 E25.13108
G1 X91.362 Y135.866 E25.15598
G1 X91.038 Y135.192 E25.18086
G1 X90.788 Y134.487 E25.20573
G1 X90.614 Y133.759 E25.23063
G1 X90.519 Y133.017 E25.25551
G1 X90.5 Y132.5 E25.27272
G1 X90.5 Y122.5 E25.60532
G1 X90.54 Y121.753 E25.6302
G1 X90.659 Y121.015 E25.65506
G1 X90.857 Y120.293 E25.67996
G1 X91.13 Y119.597 E25.70483
G1 X91.477 Y118.934 E25.72972
G1 X91.892 Y118.311 E25.75462
G1 X92.371 Y117.737 E25.77948
G1 X92.614 Y117.502 E25.79072
G1 X92.216 Y117.092 E25.80973
G1 X91.757 Y116.502 E25.83459
G1 X91.362 Y115.866 E25.85949
G1 X91.038 Y115.192 E25.88437
G1 X90.788 Y114.487 E25.90925
G1 X90.614 Y113.759 E25.93414
G1 X90.519 Y113.017 E25.95902
G1 X90.5 Y112.5 E25.97623
G1 X90.5 Y102.5 E26.30883
G1 X90.54 Y101.753 E26.33371
G1 X90.659 Y101.015 E26.35857
G1 X90.857 Y100.293 E26.38347
G1 X91.13 Y99.597 E26.40834
G1 X91.477 Y98.934 E26.43323
G1 X91.892 Y98.311 E26.45813
G1 X92.371 Y97.737 E26.48299
G1 X92.614 Y97.502 E26.49424
G1 X92.216 Y97.092 E26.51324
G1 X91.757 Y96.502 E26.5381
G1 X91.362 Y95.866 E26.563
G1 X91.038 Y95.192 E26.58788
G1 X90.788 Y94.487 E26.61276
G1 X90.614 Y93.759 E26.63765
G1 X90.519 Y93.017 E26.66253
G1 X90.5 Y92.5 E26.67974
G1 X90.5 Y82.5 E27.01234
G1 X90.54 Y81.753 E27.03722
G1 X90.659 Y81.015 E27.06208
G1 X90.857 Y80.293 E27.08699
G1 X91.13 Y79.597 E27.11185
G1 X91.477 Y78.934 E27.13674
G1 X91.892 Y78.311 E27.16164
G1 X92.371 Y77.737 E27.1865
G0 F6000 X92.289 Y78.45
G1 F1200 X92.765 Y77.902 E27.21065
G1 X93.299 Y77.409 E27.23482
G1 X93.884 Y76.979 E27.25897
G1 X94.513 Y76.615 E27.28314
G1 X95.178 Y76.322 E27.30731
G1 X95.871 Y76.104 E27.33147
G1 X96.583 Y75.964 E27.3556
G1 X97.5 Y75.9 E27.38618
G1 X137.5 Y75.9 E28.71658
G1 X138.225 Y75.94 E28.74073
G1 X138.942 Y76.059 E28.76491
G1 X139.641 Y76.257 E28.78907
G1 X140.314 Y76.53 E28.81323
G1 X140.953 Y76.875 E28.83738
G1 X141.55 Y77.289 E28.86154
G1 X142.098 Y77.765 E28.88569
G1 X142.591 Y78.299 E28.90986
G1 X143.021 Y78.884 E28.93401
G1 X143.385 Y79.513 E28.95818
G1 X143.678 Y80.178 E28.98235
G1 X143.896 Y80.871 E29.00651
G1 X144.036 Y81.583 E29.03065
G1 X144.1 Y82.5 E29.06122
G1 X144.1 Y92.5 E29.39382
G1 X144.06 Y93.225 E29.41797
G1 X143.941 Y93.942 E29.44214
G1 X143.743 Y94.641 E29.46631
