;FLAVOR:Marlin
;TIME:746
;Filament used: 0.528534m
;Layer height: 0.2
;MINX:84.7
;MINY:104.7
;MINZ:0.2
;MAXX:150.3
;MAXY:130.3
;MAXZ:2.84
;Generated with Cura_SteamEngine 4.6.1
M140 S65
M105
M190 S65
M104 S205
M105
M109 S205
M82 ;absolute extrusion mode
; Ender 3 Custom Start G-code
G92 E0 ; Reset Extruder
G28 ; Home all axes
G1 Z2.0 F3000 ; Move Z Axis up little to prevent scratching of Heat Bed
G1 X0.1 Y20 Z0.3 F5000.0 ; Move to start position
G1 X0.1 Y200.0 Z0.3 F1500.0 E15 ; Draw the first line
G1 X0.4 Y200.0 Z0.3 F5000.0 ; Move to side a little
G1 X0.4 Y20 Z0.3 F1500.0 E30 ; Draw the second line
G92 E0 ; Reset Extruder
G1 Z2.0 F3000 ; Move Z Axis up little to prevent scratching of Heat Bed
G1 X5 Y20 Z0.3 F5000.0 ; Move over to prevent blob squish
G92 E0
G92 E0
G1 F2700 E-5
;LAYER_COUNT:13
;LAYER:0
M107
G0 F6000 X87.722 Y106.334 Z0.2
;TYPE:SKIRT
G1 F2700 E0
G1 F1200 X88.37 Y105.883 E0.02626
G1 X89.061 Y105.499 E0.05255
G1 X89.786 Y105.187 E0.0788
G1 X90.539 Y104.95 E0.10506
G1 X91.313 Y104.791 E0.13134
G1 X92.098 Y104.71 E0.15759
G1 X92.5 Y104.7 E0.17096
G1 X142.5 Y104.7 E1.83397
G1 X143.289 Y104.74 E1.86025
G1 X144.069 Y104.859 E1.88649
G1 X144.834 Y105.057 E1.91277
G1 X145.574 Y105.331 E1.93902
G1 X146.283 Y105.679 E1.96529
G1 X146.954 Y106.097 E1.99158
G1 X147.578 Y106.58 E2.01782
G1 X148.151 Y107.123 E2.04408
G1 X148.666 Y107.722 E2.07035
G1 X149.117 Y108.37 E2.09661
G1 X149.501 Y109.061 E2.12291
G1 X149.813 Y109.786 E2.14916
G1 X150.05 Y110.539 E2.17541
G1 X150.209 Y111.313 E2.2017
G1 X150.29 Y112.098 E2.22794
G1 X150.3 Y112.5 E2.24132
G1 X150.3 Y122.5 E2.57392
G1 X150.26 Y123.289 E2.6002
G1 X150.141 Y124.069 E2.62644
G1 X149.943 Y124.834 E2.65272
G1 X149.669 Y125.574 E2.67897
G1 X149.321 Y126.283 E2.70524
G1 X148.903 Y126.954 E2.73153
G1 X148.42 Y127.578 E2.75777
G1 X147.877 Y128.151 E2.78403
G1 X147.278 Y128.666 E2.8103
G1 X146.63 Y129.117 E2.83656
G1 X145.939 Y129.501 E2.86286
G1 X145.214 Y129.813 E2.88911
G1 X144.461 Y130.05 E2.91536
G1 X143.687 Y130.209 E2.94164
G1 X142.902 Y130.29 E2.96789
G1 X142.5 Y130.3 E2.98127
G1 X92.5 Y130.3 E4.64427
G1 X91.711 Y130.26 E4.67055
G1 X90.931 Y130.141 E4.69679
G1 X90.166 Y129.943 E4.72308
G1 X89.426 Y129.669 E4.74932
G1 X88.717 Y129.321 E4.77559
G1 X88.046 Y128.903 E4.80188
G1 X87.422 Y128.42 E4.82813
G1 X86.849 Y127.877 E4.85438
G1 X86.334 Y127.278 E4.88066
G1 X85.883 Y126.63 E4.90692
G1 X85.499 Y125.939 E4.93321
G1 X85.187 Y125.214 E4.95946
G1 X84.95 Y124.461 E4.98572
G1 X84.791 Y123.687 E5.012
G1 X84.71 Y122.902 E5.03825
G1 X84.7 Y122.5 E5.05162
G1 X84.7 Y112.5 E5.38422
G1 X84.74 Y111.711 E5.4105
G1 X84.859 Y110.931 E5.43674
G1 X85.057 Y110.166 E5.46302
G1 X85.331 Y109.426 E5.48927
G1 X85.679 Y108.717 E5.51554
G1 X86.097 Y108.046 E5.54183
G1 X86.58 Y107.422 E5.56808
G1 X87.123 Y106.849 E5.59433
G1 X87.722 Y106.334 E5.62061
G0 F6000 X88.111 Y106.542
G1 F1200 X88.753 Y106.119 E5.64618
G1 X89.436 Y105.764 E5.67178
G1 X90.151 Y105.483 E5.69733
G1 X90.893 Y105.277 E5.72295
G1 X91.651 Y105.149 E5.74851
G1 X92.5 Y105.1 E5.7768
G1 X142.5 Y105.1 E7.43981
G1 X143.268 Y105.14 E7.46538
G1 X144.028 Y105.259 E7.49097
G1 X144.771 Y105.457 E7.51654
G1 X145.49 Y105.731 E7.54214
G1 X146.176 Y106.078 E7.56771
G1 X146.823 Y106.494 E7.59329
G1 X147.423 Y106.975 E7.61887
G1 X147.97 Y107.516 E7.64445
G1 X148.458 Y108.111 E7.67005
G1 X148.881 Y108.753 E7.69562
G1 X149.236 Y109.436 E7.72122
G1 X149.517 Y110.151 E7.74677
G1 X149.723 Y110.893 E7.77239
G1 X149.851 Y111.651 E7.79795
G1 X149.9 Y112.5 E7.82624
G1 X149.9 Y122.5 E8.15884
G1 X149.86 Y123.268 E8.18442
G1 X149.741 Y124.028 E8.21
G1 X149.543 Y124.771 E8.23558
G1 X149.269 Y125.49 E8.26117
G1 X148.922 Y126.176 E8.28674
G1 X148.506 Y126.823 E8.31232
G1 X148.025 Y127.423 E8.3379
G1 X147.484 Y127.97 E8.36349
G1 X146.889 Y128.458 E8.38908
G1 X146.247 Y128.881 E8.41466
G1 X145.564 Y129.236 E8.44026
G1 X144.849 Y129.517 E8.46581
G1 X144.107 Y129.723 E8.49142
G1 X143.349 Y129.851 E8.51699
G1 X142.5 Y129.9 E8.54527
G1 X92.5 Y129.9 E10.20828
G1 X91.732 Y129.86 E10.23386
G1 X90.972 Y129.741 E10.25944
G1 X90.229 Y129.543 E10.28502
G1 X89.51 Y129.269 E10.31061
G1 X88.824 Y128.922 E10.33618
G1 X88.177 Y128.506 E10.36176
G1 X87.577 Y128.025 E10.38734
G1 X87.03 Y127.484 E10.41293
G1 X86.542 Y126.889 E10.43852
G1 X86.119 Y126.247 E10.4641
G1 X85.764 Y125.564 E10.4897
G1 X85.483 Y124.849 E10.51525
G1 X85.277 Y124.107 E10.54086
G1 X85.149 Y123.349 E10.56643
G1 X85.1 Y122.5 E10.59471
G1 X85.1 Y112.5 E10.92732
G1 X85.14 Y111.732 E10.95289
G1 X85.259 Y110.972 E10.97848
G1 X85.457 Y110.229 E11.00405
G1 X85.731 Y109.51 E11.02965
G1 X86.078 Y108.824 E11.05522
G1 X86.494 Y108.177 E11.0808
G1 X86.975 Y107.577 E11.10638
G1 X87.516 Y107.03 E11.13196
G1 X88.111 Y106.542 E11.15756
G0 F6000 X88.498 Y106.757
G1 F1200 X89.134 Y106.362 E11.18246
G1 X89.808 Y106.038 E11.20733
G1 X90.513 Y105.788 E11.23221
G1 X91.241 Y105.614 E11.25711
G1 X91.983 Y105.519 E11.28199
G1 X92.5 Y105.5 E11.2992
G1 X142.5 Y105.5 E12.9622
G1 X143.247 Y105.54 E12.98708
G1 X143.985 Y105.659 E13.01195
G1 X144.707 Y105.857 E13.03685
G1 X145.403 Y106.13 E13.06171
G1 X146.066 Y106.477 E13.0866
G1 X146.689 Y106.892 E13.1115
G1 X147.263 Y107.371 E13.13636
G1 X147.784 Y107.908 E13.16125
G1 X148.243 Y108.498 E13.18611
G1 X148.638 Y109.134 E13.21101
G1 X148.962 Y109.808 E13.23589
G1 X149.212 Y110.513 E13.26077
G1 X149.386 Y111.241 E13.28566
G1 X149.481 Y111.983 E13.31054
G1 X149.5 Y112.5 E13.32775
G1 X149.5 Y122.5 E13.66035
G1 X149.46 Y123.247 E13.68523
G1 X149.341 Y123.985 E13.71009
G1 X149.143 Y124.707 E13.73499
G1 X148.87 Y125.403 E13.75986
G1 X148.523 Y126.066 E13.78475
G1 X148.108 Y126.689 E13.80965
G1 X147.629 Y127.263 E13.83451
G1 X147.092 Y127.784 E13.8594
G1 X146.502 Y128.243 E13.88426
G1 X145.866 Y128.638 E13.90916
G1 X145.192 Y128.962 E13.93404
G1 X144.487 Y129.212 E13.95891
G1 X143.759 Y129.386 E13.98381
G1 X143.017 Y129.481 E14.00869
G1 X142.5 Y129.5 E14.0259
G1 X92.5 Y129.5 E15.6889
G1 X91.753 Y129.46 E15.71378
G1 X91.015 Y129.341 E15.73865
G1 X90.293 Y129.143 E15.76355
G1 X89.597 Y128.87 E15.78841
G1 X88.934 Y128.523 E15.8133
G1 X88.311 Y128.108 E15.8382
G1 X87.737 Y127.629 E15.86307
G1 X87.216 Y127.092 E15.88795
G1 X86.757 Y126.502 E15.91281
G1 X86.362 Y125.866 E15.93772
G1 X86.038 Y125.192 E15.96259
G1 X85.788 Y124.487 E15.98747
G1 X85.614 Y123.759 E16.01236
G1 X85.519 Y123.017 E16.03724
G1 X85.5 Y122.5 E16.05445
G1 X85.5 Y112.5 E16.38705
G1 X85.54 Y111.753 E16.41193
G1 X85.659 Y111.015 E16.4368
G1 X85.857 Y110.293 E16.4617
G1 X86.13 Y109.597 E16.48656
G1 X86.477 Y108.934 E16.51145
G1 X86.892 Y108.311 E16.53635
G1 X87.371 Y107.737 E16.56121
G1 X87.908 Y107.216 E16.5861
G1 X88.498 Y106.757 E16.61096
G0 F6000 X88.299 Y107.409
G1 F1200 X88.884 Y106.979 E16.63511
G1 X89.513 Y106.615 E16.65928
G1 X90.178 Y106.322 E16.68345
G1 X90.871 Y106.104 E16.70761
G1 X91.583 Y105.964 E16.73175
G1 X92.5 Y105.9 E16.76232
G1 X142.5 Y105.9 E18.42533
G1 X143.225 Y105.94 E18.44948
G1 X143.942 Y106.059 E18.47365
G1 X144.641 Y106.257 E18.49782
G1 X145.314 Y106.53 E18.52197
G1 X145.953 Y106.875 E18.54613
G1 X146.55 Y107.289 E18.57029
G1 X147.098 Y107.765 E18.59443
G1 X147.591 Y108.299 E18.6186
G1 X148.021 Y108.884 E18.64275
G1 X148.385 Y109.513 E18.66692
G1 X148.678 Y110.178 E18.69109
G1 X148.896 Y110.871 E18.71526
G1 X149.036 Y111.583 E18.73939
G1 X149.1 Y112.5 E18.76996
G1 X149.1 Y122.5 E19.10257
G1 X149.06 Y123.225 E19.12672
G1 X148.941 Y123.942 E19.15089
G1 X148.743 Y124.641 E19.17505
G1 X148.47 Y125.314 E19.19921
G1 X148.125 Y125.953 E19.22336
G1 X147.711 Y126.55 E19.24753
G1 X147.235 Y127.098 E19.27167
G1 X146.701 Y127.591 E19.29584
G1 X146.116 Y128.021 E19.31999
G1 X145.487 Y128.385 E19.34416
G1 X144.822 Y128.678 E19.36833
G1 X144.129 Y128.896 E19.39249
G1 X143.417 Y129.036 E19.41663
G1 X142.5 Y129.1 E19.4472
G1 X92.5 Y129.1 E21.11021
G1 X91.775 Y129.06 E21.13436
G1 X91.058 Y128.941 E21.15853
G1 X90.359 Y128.743 E21.18269
G1 X89.686 Y128.47 E21.20685
G1 X89.047 Y128.125 E21.231
G1 X88.45 Y127.711 E21.25517
G1 X87.902 Y127.235 E21.27931
G1 X87.409 Y126.701 E21.30348
G1 X86.979 Y126.116 E21.32763
G1 X86.615 Y125.487 E21.3518
G1 X86.322 Y124.822 E21.37597
G1 X86.104 Y124.129 E21.40013
G1 X85.964 Y123.417 E21.42427
G1 X85.9 Y122.5 E21.45484
G1 X85.9 Y112.5 E21.78744
G1 X85.94 Y111.775 E21.81159
G1 X86.059 Y111.058 E21.83577
G1 X86.257 Y110.359 E21.85993
G1 X86.53 Y109.686 E21.88409
G1 X86.875 Y109.047 E21.90824
G1 X87.289 Y108.45 E21.9324
G1 X87.765 Y107.902 E21.95655
G1 X88.299 Y107.409 E21.98072
G0 F6000 X88.689 Y107.609
G1 F1200 X89.268 Y107.209 E22.00412
G1 X89.889 Y106.877 E22.02755
G1 X90.543 Y106.617 E22.05095
G1 X91.223 Y106.433 E22.07438
G1 X91.919 Y106.327 E22.0978
G1 X92.5 Y106.3 E22.11714
G1 X142.5 Y106.3 E23.78015
G1 X143.203 Y106.34 E23.80357
G1 X143.897 Y106.459 E23.82699
G1 X144.572 Y106.657 E23.85039
G1 X145.221 Y106.929 E23.87379
G1 X145.835 Y107.274 E23.89722
G1 X146.406 Y107.685 E23.92062
G1 X146.927 Y108.159 E23.94404
G1 X147.391 Y108.689 E23.96747
G1 X147.791 Y109.268 E23.99088
G1 X148.123 Y109.889 E24.0143
G1 X148.383 Y110.543 E24.03771
G1 X148.567 Y111.223 E24.06114
G1 X148.673 Y111.919 E24.08455
G1 X148.7 Y112.5 E24.1039
G1 X148.7 Y122.5 E24.4365
G1 X148.66 Y123.203 E24.45992
G1 X148.541 Y123.897 E24.48334
G1 X148.343 Y124.572 E24.50674
G1 X148.071 Y125.221 E24.53014
G1 X147.726 Y125.835 E24.55357
G1 X147.315 Y126.406 E24.57697
G1 X146.841 Y126.927 E24.60039
G1 X146.311 Y127.391 E24.62382
G1 X145.732 Y127.791 E24.64723
G1 X145.111 Y128.123 E24.67065
G1 X144.457 Y128.383 E24.69406
G1 X143.777 Y128.567 E24.71749
G1 X143.081 Y128.673 E24.7409
G1 X142.5 Y128.7 E24.76025
G1 X92.5 Y128.7 E26.42325
G1 X91.797 Y128.66 E26.44667
G1 X91.103 Y128.541 E26.47009
G1 X90.428 Y128.343 E26.49349
G1 X89.779 Y128.071 E26.51689
G1 X89.165 Y127.726 E26.54032
G1 X88.594 Y127.315 E26.56372
G1 X88.073 Y126.841 E26.58715
G1 X87.609 Y126.311 E26.61058
G1 X87.209 Y125.732 E26.63398
G1 X86.877 Y125.111 E26.6574
G1 X86.617 Y124.457 E26.68081
G1 X86.433 Y123.777 E26.70424
G1 X86.327 Y123.081 E26.72766
G1 X86.3 Y122.5 E26.747
G1 X86.3 Y112.5 E27.0796
G1 X86.34 Y111.797 E27.10302
G1 X86.459 Y111.103 E27.12644
G1 X86.657 Y110.428 E27.14984
G1 X86.929 Y109.779 E27.17324
G1 X87.274 Y109.165 E27.19667
G1 X87.685 Y108.594 E27.22007
G1 X88.159 Y108.073 E27.24349
G1 X88.689 Y107.609 E27.26692
G0 F6000 X89.078 Y107.817
G1 F1200 X89.65 Y107.448 E27.28956
G1 X90.262 Y107.149 E27.31222
G1 X90.904 Y106.924 E27.33484
G1 X91.569 Y106.775 E27.35751
G1 X92.5 Y106.7 E27.38858
G1 X142.5 Y106.7 E29.05158
G1 X143.18 Y106.74 E29.07424
G1 X143.85 Y106.859 E29.09687
G1 X144.502 Y107.056 E29.11953
G1 X145.126 Y107.328 E29.14217
G1 X145.714 Y107.672 E29.16482
G1 X146.258 Y108.082 E29.18748
G1 X146.749 Y108.553 E29.21011
G1 X147.183 Y109.078 E29.23277
G1 X147.552 Y109.65 E29.25541
G1 X147.851 Y110.262 E29.27806
G1 X148.076 Y110.904 E29.30069
G1 X148.225 Y111.569 E29.32335
G1 X148.3 Y112.5 E29.35442
G1 X148.3 Y122.5 E29.68702
G1 X148.26 Y123.18 E29.70968
G1 X148.141 Y123.85 E29.73231
G1 X147.944 Y124.502 E29.75496
G1 X147.672 Y125.126 E29.7776
G1 X147.328 Y125.714 E29.80026
G1 X146.918 Y126.258 E29.82292
G1 X146.447 Y126.749 E29.84555
G1 X145.922 Y127.183 E29.8682
G1 X145.35 Y127.552 E29.89084
G1 X144.738 Y127.851 E29.9135
G1 X144.096 Y128.076 E29.93613
G1 X143.431 Y128.225 E29.95879
G1 X142.5 Y128.3 E29.98986
G1 X92.5 Y128.3 E31.65286
G1 X91.82 Y128.26 E31.67552
G1 X91.15 Y128.141 E31.69815
G1 X90.498 Y127.944 E31.72081
G1 X89.874 Y127.672 E31.74345
G1 X89.286 Y127.328 E31.76611
G1 X88.742 Y126.918 E31.78876
G1 X88.251 Y126.447 E31.81139
G1 X87.817 Y125.922 E31.83405
G1 X87.448 Y125.35 E31.85669
G1 X87.149 Y124.738 E31.87934
G1 X86.924 Y124.096 E31.90197
G1 X86.775 Y123.431 E31.92463
G1 X86.7 Y122.5 E31.9557
G1 X86.7 Y112.5 E32.2883
G1 X86.74 Y111.82 E32.31096
G1 X86.859 Y111.15 E32.33359
G1 X87.056 Y110.498 E32.35624
G1 X87.328 Y109.874 E32.37888
G1 X87.672 Y109.286 E32.40154
G1 X88.082 Y108.742 E32.4242
G1 X88.553 Y108.251 E32.44683
G1 X89.078 Y107.817 E32.46948
G0 F6000 X88.945 Y108.435
G1 F1200 X89.465 Y108.034 E32.49133
G1 X90.029 Y107.698 E32.51316
G1 X90.631 Y107.434 E32.53502
G1 X91.26 Y107.244 E32.55688
G1 X91.907 Y107.133 E32.57871
G1 X92.5 Y107.1 E32.59847
G1 X142.5 Y107.1 E34.26147
G1 X143.156 Y107.14 E34.28333
G1 X143.802 Y107.259 E34.30518
G1 X144.429 Y107.456 E34.32704
G1 X145.027 Y107.728 E34.34889
G1 X145.588 Y108.07 E34.37074
G1 X146.103 Y108.478 E34.39259
G1 X146.565 Y108.945 E34.41444
G1 X146.966 Y109.465 E34.43628
G1 X147.302 Y110.029 E34.45812
G1 X147.566 Y110.631 E34.47998
G1 X147.756 Y111.26 E34.50184
G1 X147.867 Y111.907 E34.52367
G1 X147.9 Y112.5 E34.54342
G1 X147.9 Y122.5 E34.87603
G1 X147.86 Y123.156 E34.89788
G1 X147.741 Y123.802 E34.91973
G1 X147.544 Y124.429 E34.94159
G1 X147.272 Y125.027 E34.96344
G1 X146.93 Y125.588 E34.98529
G1 X146.522 Y126.103 E35.00715
G1 X146.055 Y126.565 E35.029
G1 X145.535 Y126.966 E35.05084
G1 X144.971 Y127.302 E35.07267
G1 X144.369 Y127.566 E35.09454
G1 X143.74 Y127.756 E35.11639
G1 X143.093 Y127.867 E35.13822
G1 X142.5 Y127.9 E35.15798
G1 X92.5 Y127.9 E36.82098
G1 X91.844 Y127.86 E36.84284
G1 X91.198 Y127.741 E36.86469
G1 X90.571 Y127.544 E36.88655
G1 X89.973 Y127.272 E36.9084
G1 X89.412 Y126.93 E36.93025
G1 X88.897 Y126.522 E36.95211
G1 X88.435 Y126.055 E36.97396
G1 X88.034 Y125.535 E36.9958
G1 X87.698 Y124.971 E37.01763
G1 X87.434 Y124.369 E37.03949
G1 X87.244 Y123.74 E37.06135
G1 X87.133 Y123.093 E37.08318
G1 X87.1 Y122.5 E37.10294
G1 X87.1 Y112.5 E37.43554
G1 X87.14 Y111.844 E37.4574
G1 X87.259 Y111.198 E37.47924
G1 X87.456 Y110.571 E37.5011
G1 X87.728 Y109.973 E37.52295
G1 X88.07 Y109.412 E37.54481
G1 X88.478 Y108.897 E37.56666
G1 X88.945 Y108.435 E37.58851
G0 F6000 X89.336 Y108.629
G1 F1200 X89.85 Y108.26 E37.60955
G1 X90.406 Y107.96 E37.63057
G1 X90.995 Y107.732 E37.65157
G1 X91.609 Y107.58 E37.67261
G1 X92.5 Y107.5 E37.70237
G1 X142.5 Y107.5 E39.36537
G1 X143.131 Y107.54 E39.3864
G1 X143.752 Y107.659 E39.40743
G1 X144.352 Y107.856 E39.42844
G1 X144.924 Y108.127 E39.44949
G1 X145.456 Y108.467 E39.47049
G1 X145.941 Y108.873 E39.49152
G1 X146.371 Y109.336 E39.51254
G1 X146.74 Y109.85 E39.53359
G1 X147.04 Y110.406 E39.5546
G1 X147.268 Y110.995 E39.57561
G1 X147.42 Y111.609 E39.59664
G1 X147.5 Y112.5 E39.6264
G1 X147.5 Y122.5 E39.959
G1 X147.46 Y123.131 E39.98003
G1 X147.341 Y123.752 E40.00106
G1 X147.144 Y124.352 E40.02206
G1 X146.873 Y124.924 E40.04311
G1 X146.533 Y125.456 E40.06411
G1 X146.127 Y125.941 E40.08515
G1 X145.664 Y126.371 E40.10617
G1 X145.15 Y126.74 E40.12721
G1 X144.594 Y127.04 E40.14822
G1 X144.005 Y127.268 E40.16923
G1 X143.391 Y127.42 E40.19027
G1 X142.5 Y127.5 E40.22002
G1 X92.5 Y127.5 E41.88303
G1 X91.869 Y127.46 E41.90406
G1 X91.248 Y127.341 E41.92509
G1 X90.648 Y127.144 E41.94609
G1 X90.076 Y126.873 E41.96715
G1 X89.544 Y126.533 E41.98815
G1 X89.059 Y126.127 E42.00918
G1 X88.629 Y125.664 E42.0302
G1 X88.26 Y125.15 E42.05124
G1 X87.96 Y124.594 E42.07226
G1 X87.732 Y124.005 E42.09326
G1 X87.58 Y123.391 E42.1143
G1 X87.5 Y122.5 E42.14406
G1 X87.5 Y112.5 E42.47666
G1 X87.54 Y111.869 E42.49769
G1 X87.659 Y111.248 E42.51872
G1 X87.856 Y110.648 E42.53972
G1 X88.127 Y110.076 E42.56077
G1 X88.467 Y109.544 E42.58177
G1 X88.873 Y109.059 E42.60281
G1 X89.336 Y108.629 E42.62383
G0 F6000 X89.725 Y108.831
G1 F1200 X90.232 Y108.498 E42.644
G1 X90.778 Y108.234 E42.66417
G1 X91.354 Y108.045 E42.68434
G1 X91.95 Y107.933 E42.70451
G1 X92.5 Y107.9 E42.72283
G1 X142.5 Y107.9 E44.38584
G1 X143.105 Y107.94 E44.406
G1 X143.699 Y108.059 E44.42615
G1 X144.273 Y108.255 E44.44633
G1 X144.816 Y108.526 E44.46651
G1 X145.319 Y108.865 E44.48669
G1 X145.772 Y109.267 E44.50683
G1 X146.169 Y109.725 E44.52699
G1 X146.502 Y110.232 E44.54716
G1 X146.766 Y110.778 E44.56734
G1 X146.955 Y111.354 E44.5875
G1 X147.067 Y111.95 E44.60767
G1 X147.1 Y112.5 E44.62599
G1 X147.1 Y122.5 E44.9586
G1 X147.06 Y123.105 E44.97876
G1 X146.941 Y123.699 E44.99891
G1 X146.745 Y124.273 E45.01909
G1 X146.474 Y124.816 E45.03927
G1 X146.135 Y125.319 E45.05944
G1 X145.733 Y125.772 E45.07959
