;FLAVOR:Marlin
;TIME:14080
;Filament used: 10.3892m
;Layer height: 0.2
;MINX:49.812
;MINY:5.873
;MINZ:0.2
;MAXX:185.3
;MAXY:229.127
;MAXZ:3
;Generated with Cura_SteamEngine 4.6.1
M140 S65
M105
M190 S65
M104 S205
M105
M109 S205
M82 ;absolute extrusion mode
; Ender 3 Custom Start G-code
G92 E0 ; Reset Extruder
G28 ; Home all axes
G1 Z2.0 F3000 ; Move Z Axis up little to prevent scratching of Heat Bed
G1 X0.1 Y20 Z0.3 F5000.0 ; Move to start position
G1 X0.1 Y200.0 Z0.3 F1500.0 E15 ; Draw the first line
G1 X0.4 Y200.0 Z0.3 F5000.0 ; Move to side a little
G1 X0.4 Y20 Z0.3 F1500.0 E30 ; Draw the second line
G92 E0 ; Reset Extruder
G1 Z2.0 F3000 ; Move Z Axis up little to prevent scratching of Heat Bed
G1 X5 Y20 Z0.3 F5000.0 ; Move over to prevent blob squish
G92 E0
G92 E0
G1 F2700 E-5
;LAYER_COUNT:17
;LAYER:0
M107
G0 F6000 X74.045 Y73.434 Z0.2
;TYPE:SKIRT
G1 F2700 E0
G1 F1200 X101.511 Y25.877 E1.8266
G1 X108.504 Y13.765 E2.29177
G1 X110.794 Y9.784 E2.44452
G1 X111.222 Y9.12 E2.4708
G1 X111.715 Y8.503 E2.49706
G1 X112.267 Y7.939 E2.52331
G1 X112.874 Y7.434 E2.54957
G1 X113.529 Y6.992 E2.57586
G1 X114.225 Y6.619 E2.60212
G1 X114.955 Y6.319 E2.62837
G1 X115.712 Y6.094 E2.65464
G1 X116.488 Y5.946 E2.68091
G1 X117.556 Y5.873 E2.71652
G1 X173.305 Y5.88 E4.57074
G1 X177.501 Y5.88 E4.7103
G1 X178.29 Y5.92 E4.73657
G1 X179.07 Y6.04 E4.76282
G1 X179.835 Y6.238 E4.7891
G1 X180.575 Y6.512 E4.81535
G1 X181.284 Y6.859 E4.8416
G1 X181.955 Y7.277 E4.8679
G1 X182.579 Y7.76 E4.89414
G1 X183.152 Y8.304 E4.92042
G1 X183.666 Y8.903 E4.94667
G1 X184.118 Y9.551 E4.97295
G1 X184.501 Y10.241 E4.9992
G1 X184.813 Y10.967 E5.02548
G1 X185.05 Y11.72 E5.05174
G1 X185.209 Y12.494 E5.07802
G1 X185.29 Y13.279 E5.10426
G1 X185.3 Y13.68 E5.11761
G1 X185.3 Y59.486 E6.64112
G1 X185.26 Y60.275 E6.6674
G1 X185.141 Y61.055 E6.69364
G1 X184.943 Y61.82 E6.71992
G1 X184.669 Y62.56 E6.74617
G1 X184.321 Y63.269 E6.77244
G1 X183.903 Y63.94 E6.79873
G1 X183.42 Y64.564 E6.82497
G1 X182.877 Y65.137 E6.85123
G1 X182.278 Y65.652 E6.8775
G1 X181.63 Y66.103 E6.90376
G1 X180.939 Y66.487 E6.93006
G1 X180.214 Y66.799 E6.95631
G1 X179.461 Y67.036 E6.98256
G1 X178.687 Y67.195 E7.00885
G1 X177.902 Y67.276 E7.03509
G1 X177.5 Y67.286 E7.04847
G1 X146.082 Y67.286 E8.09343
G1 X146.082 Y172.07 E11.57856
G1 X177.5 Y172.07 E12.62353
G1 X178.289 Y172.11 E12.64981
G1 X179.069 Y172.229 E12.67605
G1 X179.834 Y172.427 E12.70233
G1 X180.574 Y172.701 E12.72858
G1 X181.283 Y173.049 E12.75485
G1 X181.954 Y173.467 E12.78114
G1 X182.578 Y173.95 E12.80739
G1 X183.151 Y174.493 E12.83364
G1 X183.666 Y175.092 E12.85992
G1 X184.117 Y175.74 E12.88618
G1 X184.501 Y176.431 E12.91247
G1 X184.813 Y177.156 E12.93872
G1 X185.05 Y177.909 E12.96498
G1 X185.209 Y178.683 E12.99126
G1 X185.29 Y179.468 E13.0175
G1 X185.3 Y179.87 E13.03088
G1 X185.3 Y221.319 E14.40948
G1 X185.26 Y222.108 E14.43575
G1 X185.141 Y222.888 E14.462
G1 X184.943 Y223.653 E14.48828
G1 X184.669 Y224.393 E14.51453
G1 X184.321 Y225.102 E14.54079
G1 X183.903 Y225.773 E14.56709
G1 X183.42 Y226.397 E14.59333
G1 X182.877 Y226.97 E14.61959
G1 X182.278 Y227.485 E14.64586
G1 X181.63 Y227.936 E14.67212
G1 X180.939 Y228.32 E14.69842
G1 X180.214 Y228.632 E14.72467
G1 X179.461 Y228.869 E14.75092
G1 X178.687 Y229.028 E14.7772
G1 X177.902 Y229.109 E14.80345
G1 X177.501 Y229.119 E14.81679
G1 X169.109 Y229.12 E15.09591
G1 X121.709 Y229.12 E16.67244
G1 X117.568 Y229.127 E16.81017
G1 X116.779 Y229.088 E16.83645
G1 X115.999 Y228.97 E16.86269
G1 X115.234 Y228.774 E16.88895
G1 X114.493 Y228.501 E16.91522
G1 X113.783 Y228.154 E16.9415
G1 X113.112 Y227.738 E16.96776
G1 X112.487 Y227.256 E16.99401
G1 X111.913 Y226.713 E17.02029
G1 X111.397 Y226.115 E17.04656
G1 X110.8 Y225.227 E17.08215
G1 X87.612 Y185.061 E18.62472
G1 X60.158 Y137.498 E20.45129
G1 X53.165 Y125.386 E20.91646
G1 X50.862 Y121.41 E21.06928
G1 X50.501 Y120.707 E21.09557
G1 X50.213 Y119.972 E21.12182
G1 X50.001 Y119.211 E21.1481
G1 X49.867 Y118.433 E21.17435
G1 X49.812 Y117.645 E21.20063
G1 X49.838 Y116.856 E21.22688
G1 X49.943 Y116.073 E21.25316
G1 X50.126 Y115.305 E21.27942
G1 X50.386 Y114.56 E21.30566
G1 X50.856 Y113.6 E21.34121
G1 X74.045 Y73.434 E22.88379
G0 F6000 X74.391 Y73.634
G1 F1200 X101.857 Y26.077 E24.71039
G1 X108.85 Y13.965 E25.17556
G1 X111.141 Y9.983 E25.32836
G1 X111.558 Y9.337 E25.35393
G1 X112.041 Y8.738 E25.37953
G1 X112.583 Y8.192 E25.40512
G1 X113.178 Y7.706 E25.43067
G1 X113.821 Y7.284 E25.45625
G1 X114.505 Y6.931 E25.48185
G1 X115.221 Y6.651 E25.50742
G1 X115.963 Y6.446 E25.53302
G1 X116.721 Y6.32 E25.55858
G1 X117.556 Y6.273 E25.5864
G1 X173.305 Y6.28 E27.44062
G1 X177.501 Y6.28 E27.58018
G1 X178.269 Y6.32 E27.60575
G1 X179.029 Y6.44 E27.63134
G1 X179.772 Y6.637 E27.65691
G1 X180.491 Y6.911 E27.6825
G1 X181.177 Y7.258 E27.70807
G1 X181.824 Y7.675 E27.73367
G1 X182.424 Y8.156 E27.75925
G1 X182.971 Y8.697 E27.78484
G1 X183.458 Y9.292 E27.81041
G1 X183.882 Y9.934 E27.836
G1 X184.236 Y10.617 E27.86159
G1 X184.518 Y11.332 E27.88715
G1 X184.724 Y12.073 E27.91273
G1 X184.851 Y12.832 E27.93833
G1 X184.9 Y13.68 E27.96658
G1 X184.9 Y59.486 E29.49009
G1 X184.86 Y60.254 E29.51567
G1 X184.741 Y61.014 E29.54126
G1 X184.543 Y61.757 E29.56683
G1 X184.269 Y62.476 E29.59242
G1 X183.922 Y63.162 E29.61799
G1 X183.506 Y63.809 E29.64358
G1 X183.025 Y64.409 E29.66915
G1 X182.484 Y64.956 E29.69474
G1 X181.889 Y65.444 E29.72034
G1 X181.247 Y65.867 E29.74591
G1 X180.564 Y66.222 E29.77151
G1 X179.849 Y66.503 E29.79706
G1 X179.107 Y66.709 E29.82267
G1 X178.349 Y66.837 E29.84824
G1 X177.5 Y66.886 E29.87653
G1 X145.682 Y66.886 E30.9348
G1 X145.682 Y172.47 E34.44654
G1 X177.5 Y172.47 E35.50481
G1 X178.268 Y172.51 E35.53039
G1 X179.028 Y172.629 E35.55597
G1 X179.771 Y172.827 E35.58155
G1 X180.49 Y173.101 E35.60714
G1 X181.176 Y173.448 E35.63271
G1 X181.823 Y173.864 E35.65829
G1 X182.423 Y174.345 E35.68387
G1 X182.97 Y174.886 E35.70946
G1 X183.458 Y175.481 E35.73505
G1 X183.881 Y176.123 E35.76062
G1 X184.236 Y176.806 E35.78622
G1 X184.517 Y177.521 E35.81178
G1 X184.723 Y178.263 E35.83739
G1 X184.851 Y179.021 E35.86296
G1 X184.9 Y179.87 E35.89124
G1 X184.9 Y221.319 E37.26984
G1 X184.86 Y222.087 E37.29542
G1 X184.741 Y222.847 E37.321
G1 X184.543 Y223.59 E37.34658
G1 X184.269 Y224.309 E37.37217
G1 X183.922 Y224.995 E37.39774
G1 X183.506 Y225.642 E37.42332
G1 X183.025 Y226.242 E37.4489
G1 X182.484 Y226.789 E37.47449
G1 X181.889 Y227.277 E37.50008
G1 X181.247 Y227.7 E37.52566
G1 X180.564 Y228.055 E37.55126
G1 X179.849 Y228.336 E37.57681
G1 X179.107 Y228.542 E37.60242
G1 X178.349 Y228.67 E37.62799
G1 X177.501 Y228.719 E37.65624
G1 X169.109 Y228.72 E37.93536
G1 X121.709 Y228.72 E39.51189
G1 X117.568 Y228.727 E39.64962
G1 X116.799 Y228.688 E39.67523
G1 X116.039 Y228.57 E39.70081
G1 X115.296 Y228.374 E39.72637
G1 X114.576 Y228.101 E39.75198
G1 X113.889 Y227.755 E39.77756
G1 X113.242 Y227.34 E39.80313
G1 X112.641 Y226.86 E39.82871
G1 X112.093 Y226.32 E39.8543
G1 X111.605 Y225.726 E39.87987
G1 X111.146 Y225.027 E39.90768
G1 X87.958 Y184.861 E41.45025
G1 X60.504 Y137.298 E43.27682
G1 X53.511 Y125.186 E43.74199
G1 X51.208 Y121.209 E43.89484
G1 X50.857 Y120.525 E43.92041
G1 X50.58 Y119.807 E43.94601
G1 X50.378 Y119.065 E43.97159
G1 X50.255 Y118.306 E43.99716
G1 X50.211 Y117.538 E44.02275
G1 X50.247 Y116.769 E44.04835
G1 X50.363 Y116.009 E44.07392
G1 X50.557 Y115.265 E44.09949
G1 X50.827 Y114.545 E44.12507
G1 X51.202 Y113.8 E44.15281
G1 X74.391 Y73.634 E45.69539
G0 F6000 X74.738 Y73.834
G1 F1200 X102.203 Y26.277 E47.52197
G1 X109.196 Y14.165 E47.98714
G1 X111.487 Y10.183 E48.13994
G1 X111.894 Y9.555 E48.16483
G1 X112.366 Y8.974 E48.18973
G1 X112.897 Y8.448 E48.21459
G1 X113.481 Y7.98 E48.23948
G1 X114.112 Y7.578 E48.26436
G1 X114.782 Y7.246 E48.28923
G1 X115.484 Y6.986 E48.31413
G1 X116.209 Y6.804 E48.33899
G1 X116.95 Y6.699 E48.36389
G1 X117.556 Y6.673 E48.38406
G1 X173.305 Y6.68 E50.23828
G1 X177.501 Y6.68 E50.37784
G1 X178.248 Y6.72 E50.40272
G1 X178.986 Y6.84 E50.42759
G1 X179.708 Y7.037 E50.45248
G1 X180.404 Y7.311 E50.47736
G1 X181.067 Y7.657 E50.50223
G1 X181.69 Y8.072 E50.52713
G1 X182.264 Y8.551 E50.552
G1 X182.784 Y9.089 E50.57688
G1 X183.244 Y9.679 E50.60176
G1 X183.638 Y10.315 E50.62665
G1 X183.962 Y10.989 E50.65152
G1 X184.212 Y11.694 E50.6764
G1 X184.386 Y12.422 E50.7013
G1 X184.481 Y13.164 E50.72618
G1 X184.5 Y13.68 E50.74335
G1 X184.5 Y59.486 E52.26686
G1 X184.46 Y60.233 E52.29174
G1 X184.341 Y60.971 E52.31661
G1 X184.143 Y61.693 E52.34151
G1 X183.87 Y62.389 E52.36637
G1 X183.523 Y63.052 E52.39126
G1 X183.108 Y63.675 E52.41616
G1 X182.629 Y64.249 E52.44103
G1 X182.092 Y64.77 E52.46591
G1 X181.502 Y65.229 E52.49077
G1 X180.866 Y65.624 E52.51568
G1 X180.192 Y65.948 E52.54055
G1 X179.487 Y66.198 E52.56543
G1 X178.759 Y66.372 E52.59032
G1 X178.017 Y66.467 E52.6152
G1 X177.5 Y66.486 E52.63241
G1 X145.282 Y66.486 E53.70399
G1 X145.282 Y172.87 E57.24233
G1 X177.5 Y172.87 E58.31391
G1 X178.247 Y172.91 E58.33879
G1 X178.985 Y173.029 E58.36365
G1 X179.707 Y173.227 E58.38855
G1 X180.403 Y173.5 E58.41342
G1 X181.066 Y173.847 E58.43831
G1 X181.689 Y174.262 E58.4632
G1 X182.263 Y174.741 E58.48807
G1 X182.784 Y175.278 E58.51295
G1 X183.243 Y175.868 E58.53782
G1 X183.638 Y176.504 E58.56272
G1 X183.962 Y177.178 E58.58759
G1 X184.212 Y177.883 E58.61247
G1 X184.386 Y178.611 E58.63737
G1 X184.481 Y179.353 E58.66225
G1 X184.5 Y179.87 E58.67945
G1 X184.5 Y221.319 E60.05805
G1 X184.46 Y222.066 E60.08293
G1 X184.341 Y222.804 E60.1078
G1 X184.143 Y223.526 E60.1327
G1 X183.87 Y224.222 E60.15756
G1 X183.523 Y224.885 E60.18245
G1 X183.108 Y225.508 E60.20735
G1 X182.629 Y226.082 E60.23222
G1 X182.092 Y226.603 E60.2571
G1 X181.502 Y227.062 E60.28196
G1 X180.866 Y227.457 E60.30686
G1 X180.192 Y227.781 E60.33174
G1 X179.487 Y228.031 E60.35662
G1 X178.759 Y228.205 E60.38151
G1 X178.017 Y228.3 E60.40639
G1 X177.501 Y228.319 E60.42357
G1 X169.109 Y228.32 E60.70269
G1 X121.708 Y228.32 E62.27925
G1 X117.567 Y228.327 E62.41698
G1 X116.82 Y228.288 E62.44186
G1 X116.081 Y228.17 E62.46675
G1 X115.359 Y227.974 E62.49163
G1 X114.663 Y227.701 E62.5165
G1 X113.999 Y227.356 E62.54139
G1 X113.376 Y226.942 E62.56627
G1 X112.8 Y226.464 E62.59116
G1 X112.279 Y225.928 E62.61602
G1 X111.818 Y225.338 E62.64093
G1 X111.493 Y224.827 E62.66107
G1 X88.305 Y184.661 E64.20363
G1 X60.851 Y137.098 E66.0302
G1 X53.858 Y124.986 E66.49537
G1 X51.554 Y121.009 E66.64824
G1 X51.214 Y120.342 E66.67314
G1 X50.947 Y119.643 E66.69803
G1 X50.757 Y118.92 E66.72289
G1 X50.644 Y118.181 E66.74776
G1 X50.611 Y117.433 E66.77266
G1 X50.658 Y116.687 E66.79752
G1 X50.785 Y115.949 E66.82243
G1 X50.989 Y115.23 E66.84729
G1 X51.269 Y114.536 E66.87218
G1 X51.549 Y114 E66.89229
G1 X74.738 Y73.834 E68.43487
G0 F6000 X75.084 Y74.034
G1 F1200 X102.549 Y26.478 E70.26143
G1 X109.542 Y14.366 E70.7266
G1 X111.834 Y10.382 E70.87947
G1 X112.23 Y9.773 E70.90363
G1 X112.691 Y9.212 E70.92778
G1 X113.211 Y8.704 E70.95196
G1 X113.783 Y8.257 E70.9761
G1 X114.401 Y7.875 E71.00027
G1 X115.057 Y7.564 E71.02441
G1 X115.744 Y7.326 E71.0486
G1 X116.452 Y7.166 E71.07274
G1 X117.174 Y7.084 E71.09691
G1 X117.556 Y7.073 E71.10962
G1 X173.305 Y7.08 E72.96384
G1 X177.501 Y7.08 E73.1034
G1 X178.226 Y7.12 E73.12755
G1 X178.943 Y7.24 E73.15173
G1 X179.642 Y7.437 E73.17588
G1 X180.315 Y7.71 E73.20004
G1 X180.954 Y8.056 E73.2242
G1 X181.551 Y8.469 E73.24835
G1 X182.099 Y8.946 E73.27251
G1 X182.591 Y9.48 E73.29666
G1 X183.022 Y10.065 E73.32083
G1 X183.386 Y10.693 E73.34497
G1 X183.678 Y11.358 E73.36913
G1 X183.896 Y12.051 E73.39329
G1 X184.036 Y12.764 E73.41746
G1 X184.1 Y13.68 E73.448
G1 X184.1 Y59.486 E74.97151
G1 X184.06 Y60.211 E74.99566
G1 X183.941 Y60.928 E75.01984
G1 X183.743 Y61.627 E75.044
G1 X183.47 Y62.3 E75.06816
G1 X183.125 Y62.939 E75.09231
G1 X182.711 Y63.536 E75.11647
G1 X182.235 Y64.084 E75.14062
G1 X181.701 Y64.577 E75.16479
G1 X181.116 Y65.007 E75.18894
G1 X180.487 Y65.371 E75.21311
G1 X179.822 Y65.664 E75.23728
G1 X179.129 Y65.882 E75.26144
G1 X178.417 Y66.022 E75.28558
G1 X177.5 Y66.086 E75.31615
G1 X144.882 Y66.086 E76.40103
G1 X144.882 Y173.27 E79.96598
G1 X177.5 Y173.27 E81.05086
G1 X178.225 Y173.31 E81.07501
G1 X178.942 Y173.429 E81.09919
G1 X179.641 Y173.627 E81.12335
G1 X180.314 Y173.9 E81.14751
G1 X180.953 Y174.245 E81.17166
G1 X181.55 Y174.659 E81.19582
G1 X182.098 Y175.135 E81.21996
G1 X182.591 Y175.669 E81.24414
G1 X183.021 Y176.254 E81.26828
G1 X183.385 Y176.883 E81.29246
G1 X183.678 Y177.548 E81.31663
G1 X183.896 Y178.241 E81.34079
G1 X184.036 Y178.953 E81.36492
G1 X184.1 Y179.87 E81.3955
G1 X184.1 Y221.319 E82.7741
G1 X184.06 Y222.044 E82.79825
G1 X183.941 Y222.761 E82.82242
G1 X183.743 Y223.46 E82.84658
G1 X183.47 Y224.133 E82.87074
G1 X183.125 Y224.772 E82.89489
G1 X182.711 Y225.369 E82.91906
G1 X182.235 Y225.917 E82.9432
G1 X181.701 Y226.41 E82.96737
G1 X181.116 Y226.84 E82.99152
G1 X180.487 Y227.204 E83.01569
G1 X179.822 Y227.497 E83.03986
G1 X179.129 Y227.715 E83.06402
G1 X178.417 Y227.855 E83.08816
G1 X177.501 Y227.919 E83.1187
G1 X169.109 Y227.92 E83.39782
G1 X121.707 Y227.92 E84.97441
G1 X117.566 Y227.927 E85.11214
G1 X116.841 Y227.888 E85.13629
G1 X116.124 Y227.77 E85.16046
G1 X115.425 Y227.574 E85.18461
G1 X114.751 Y227.302 E85.20878
G1 X114.112 Y226.958 E85.23292
G1 X113.514 Y226.545 E85.25709
G1 X112.965 Y226.069 E85.28126
G1 X112.472 Y225.536 E85.30541
G1 X112.04 Y224.952 E85.32957
G1 X111.839 Y224.627 E85.34228
G1 X88.651 Y184.461 E86.88484
G1 X61.197 Y136.898 E88.71141
G1 X54.204 Y124.786 E89.17658
G1 X51.9 Y120.808 E89.32948
G1 X51.571 Y120.161 E89.35362
G1 X51.315 Y119.481 E89.37779
G1 X51.136 Y118.777 E89.40195
G1 X51.035 Y118.058 E89.4261
G1 X51.013 Y117.332 E89.45026
G1 X51.072 Y116.608 E89.47442
G1 X51.209 Y115.894 E89.4986
G1 X51.424 Y115.201 E89.52273
G1 X51.715 Y114.535 E89.5469
G1 X51.895 Y114.2 E89.55955
G1 X75.084 Y74.034 E91.10213
G0 F6000 X75.431 Y74.234
G1 F1200 X102.896 Y26.678 E92.92869
G1 X109.889 Y14.566 E93.39386
G1 X112.181 Y10.581 E93.54676
G1 X112.566 Y9.992 E93.57016
G1 X113.015 Y9.45 E93.59357
G1 X113.523 Y8.963 E93.61698
G1 X114.083 Y8.536 E93.6404
G1 X114.688 Y8.176 E93.66381
G1 X115.33 Y7.886 E93.68725
G1 X116 Y7.671 E93.71065
G1 X116.69 Y7.534 E93.73405
G1 X117.556 Y7.473 E93.76292
G1 X173.305 Y7.48 E95.61714
G1 X177.501 Y7.48 E95.7567
G1 X178.204 Y7.52 E95.78012
G1 X178.897 Y7.64 E95.80351
G1 X179.573 Y7.837 E95.82693
G1 X180.222 Y8.11 E95.85035
G1 X180.836 Y8.454 E95.87376
G1 X181.407 Y8.866 E95.89718
G1 X181.928 Y9.34 E95.9206
G1 X182.391 Y9.87 E95.94401
G1 X182.791 Y10.449 E95.96742
G1 X183.124 Y11.07 E95.99085
G1 X183.383 Y11.724 E96.01425
G1 X183.567 Y12.403 E96.03765
G1 X183.673 Y13.099 E96.06106
G1 X183.7 Y13.68 E96.08041
G1 X183.7 Y59.486 E97.60392
G1 X183.66 Y60.189 E97.62734
G1 X183.541 Y60.883 E97.65076
G1 X183.343 Y61.558 E97.67416
G1 X183.071 Y62.207 E97.69756
G1 X182.726 Y62.821 E97.72099
G1 X182.315 Y63.392 E97.74439
G1 X181.841 Y63.913 E97.76781
G1 X181.311 Y64.377 E97.79124
G1 X180.732 Y64.777 E97.81465
G1 X180.111 Y65.109 E97.83807
G1 X179.457 Y65.369 E97.86148
G1 X178.777 Y65.553 E97.88491
G1 X178.081 Y65.659 E97.90832
G1 X177.5 Y65.686 E97.92767
G1 X144.482 Y65.686 E99.02585
G1 X144.482 Y173.67 E102.61741
G1 X177.5 Y173.67 E103.7156
G1 X178.203 Y173.71 E103.73902
G1 X178.897 Y173.829 E103.76244
G1 X179.572 Y174.027 E103.78583
G1 X180.221 Y174.299 E103.80924
G1 X180.835 Y174.644 E103.83266
G1 X181.406 Y175.055 E103.85606
G1 X181.927 Y175.529 E103.87949
G1 X182.391 Y176.059 E103.90292
G1 X182.791 Y176.638 E103.92632
G1 X183.123 Y177.259 E103.94975
G1 X183.383 Y177.913 E103.97315
G1 X183.567 Y178.593 E103.99658
G1 X183.673 Y179.289 E104.02
G1 X183.7 Y179.87 E104.03935
G1 X183.7 Y221.319 E105.41794
G1 X183.66 Y222.022 E105.44136
G1 X183.541 Y222.716 E105.46478
G1 X183.343 Y223.391 E105.48818
G1 X183.071 Y224.04 E105.51158
G1 X182.726 Y224.654 E105.53501
G1 X182.315 Y225.225 E105.55841
G1 X181.841 Y225.746 E105.58184
G1 X181.311 Y226.21 E105.60527
G1 X180.732 Y226.61 E105.62867
G1 X180.111 Y226.942 E105.65209
G1 X179.457 Y227.202 E105.6755
G1 X178.777 Y227.386 E105.69893
G1 X178.081 Y227.492 E105.72235
